!!!!SEGMENT: pl-wtm--r-1542--002_stefani-jozef--msza-in-es-no-3-gloria.krn
!!!cenid: 18xx:1778
!!!COM: Stefani, Józef
!!!COM-rismid: pe30024097
!!!CDT: 1800/04/16-1876/03/19
!!!CNT: Polish
!!!OPR: Msza in Es No 3
!!!OTL: Gloria
!!!OMV: 002
!!!PDT:
!!!AGN: Sacred; Mass
!!!SMS-siglum: PL-Wtm
!!!SMS-shelfmark: R 1542
!!!SMS-shelfwork: 001-002 M
!!!SMS-variant:
!!!SMS-altvar:
!!!NIFC-rismid: 1001120488
!!!URL-scan: http://repozytorium.nifc.pl/skany/pl-wtm-nut--r1542
!!!ONB-nifc: UWAGA: części Mszy: 1. Kyrie, 2. Gloria, 3. Graduale, 4. Credo, 5. Offertorium, 6. Sanctus, 7. Benedictus, 8. Agnus Dei
**kern	**dynam	**kern	**text	**text	**text	**kern	**text	**text	**text	**kern	**text	**text	**text	**kern	**text	**text	**text	**dynam	**kern	**dynam	**kern	**dynam	**kern	**dynam	**kern	**dynam	**kern	**dynam	**kern	**dynam	**kern	**dynam	**kern	**dynam	**kern	**dynam	**kern	**dynam	**kern	**dynam	**kern	**dynam	**kern	**dynam
*part18	*part18	*part17	*part17	*part17	*part17	*part16	*part16	*part16	*part16	*part15	*part15	*part15	*part15	*part14	*part14	*part14	*part14	*part14	*part13	*part13	*part12	*part12	*part11	*part11	*part10	*part10	*part9	*part9	*part8	*part8	*part7	*part7	*part6	*part6	*part5	*part5	*part4	*part4	*part3	*part3	*part2	*part2	*part1	*part1
*staff18	*	*staff17	*staff17	*staff17	*staff17	*staff16	*staff16	*staff16	*staff16	*staff15	*staff15	*staff15	*staff15	*staff14	*staff14	*staff14	*staff14	*	*staff13	*	*staff12	*	*staff11	*	*staff10	*	*staff9	*	*staff8	*	*staff7	*	*staff6	*	*staff5	*	*staff4	*	*staff3	*	*staff2	*	*staff1	*
*Ivioln	*	*Iempty	*	*	*	*Itenor	*	*	*	*Ialto	*	*	*	*Isoprn	*	*	*	*	*Iviola	*	*Ivioln	*	*Ivioln	*	*Itromt	*	*Itromt	*	*Itromt	*	*Itimp	*	*Itromp	*	*Ifagot	*	*Icor	*	*Iclars	*	*Ioboe	*	*Iflt	*
*I"V.celli C at Basſi	*	*I"Basſo	*	*	*	*I"Tenore	*	*	*	*I"Alto	*	*	*	*I"Soprano	*	*	*	*	*I"Viole	*	*I"Violini	*	*I"Violini	*	*I"[Tromboni]	*	*I"[Tromboni]	*	*I"Tromboni	*	*I"Tympani F.B.	*	*I"Trombe in B♭	*	*I"Fagotti	*	*I"Corni in E♭	*	*I"Clarinetti in B.	*	*I"Oboe	*	*I"Flautti	*
*I'V-c.+Cb	*	*I'B.	*	*	*	*I'T.	*	*	*	*I'A.	*	*	*	*I'S.	*	*	*	*	*I'V-le	*	*I'[V-no II]	*	*I'V-ni	*	*I'[Tr-ne b]	*	*I'[Tr-ne t.]	*	*I'Tr-ni	*	*I'Timp.	*	*I'Tr-be	*	*I'Fag.	*	*I'C.	*	*I'Cl.	*	*I'Ob.	*	*I'Fl.	*
*clefF4	*	*clefF4	*	*	*	*clefC4	*	*	*	*clefG2	*	*	*	*clefG2	*	*	*	*	*clefC3	*	*clefG2	*	*clefG2	*	*clefF4	*	*clefC4	*	*clefC3	*	*clefF4	*	*clefG2	*	*clefF4	*	*clefG2	*	*clefG2	*	*clefG2	*	*clefG2	*
*	*	*	*	*	*	*	*	*	*	*	*	*	*	*	*	*	*	*	*	*	*	*	*	*	*	*	*	*	*	*	*	*	*ITrd1c2	*	*	*	*ITrd5c9	*	*ITrd1c2	*	*	*	*	*
*k[b-e-]	*	*k[b-e-]	*	*	*	*k[b-e-]	*	*	*	*k[b-e-]	*	*	*	*k[b-e-]	*	*	*	*	*k[b-e-]	*	*k[b-e-]	*	*k[b-e-]	*	*k[b-e-]	*	*k[b-e-]	*	*k[b-e-]	*	*k[b-]	*	*k[b-e-]	*	*k[b-e-]	*	*k[b-e-a-]	*	*k[b-e-]	*	*k[b-e-]	*	*k[b-e-]	*
*B-:	*	*B-:	*	*	*	*B-:	*	*	*	*B-:	*	*	*	*B-:	*	*	*	*	*B-:	*	*B-:	*	*B-:	*	*B-:	*	*B-:	*	*B-:	*	*B-:	*	*B-:	*	*B-:	*	*B-:	*	*B-:	*	*B-:	*	*B-:	*
*M4/4	*	*M4/4	*	*	*	*M4/4	*	*	*	*M4/4	*	*	*	*M4/4	*	*	*	*	*M4/4	*	*M4/4	*	*M4/4	*	*M4/4	*	*M4/4	*	*M4/4	*	*M4/4	*	*M4/4	*	*M4/4	*	*M4/4	*	*M4/4	*	*M4/4	*	*M4/4	*
*met(c)	*	*met(c)	*	*	*	*met(c)	*	*	*	*met(c)	*	*	*	*met(c)	*	*	*	*	*met(c)	*	*met(c)	*	*met(c)	*	*met(c)	*	*met(c)	*	*met(c)	*	*met(c)	*	*met(c)	*	*met(c)	*	*met(c)	*	*met(c)	*	*met(c)	*	*met(c)	*
=1	=1	=1	=1	=1	=1	=1	=1	=1	=1	=1	=1	=1	=1	=1	=1	=1	=1	=1	=1	=1	=1	=1	=1	=1	=1	=1	=1	=1	=1	=1	=1	=1	=1	=1	=1	=1	=1	=1	=1	=1	=1	=1	=1	=1
!	!	!	!	!	!	!	!	!	!	!	!	!	!	!	!	!	!	!	!	!	!	!	!	!	!	!	!	!	!	!	!LO:TX:t=P:problem:jeden znak przy kluczu	!	!	!LO:DY:rj	!	!	!LO:TX:t=P:problem:brak znaków przy kluczu	!	!	!	!	!	!LO:TX:a:t=Allegro Moderato.	!
1r	.	1r	.	.	.	1r	.	.	.	1r	.	.	.	1r	.	.	.	.	1r	.	1r	.	1r	.	1r	.	1r	.	1r	.	1r	.	4f/	f	1r	.	1r	.	1r	.	1r	.	1r	.
.	.	.	.	.	.	.	.	.	.	.	.	.	.	.	.	.	.	.	.	.	.	.	.	.	.	.	.	.	.	.	.	.	8r	.	.	.	.	.	.	.	.	.	.	.
.	.	.	.	.	.	.	.	.	.	.	.	.	.	.	.	.	.	.	.	.	.	.	.	.	.	.	.	.	.	.	.	.	16f/LL	.	.	.	.	.	.	.	.	.	.	.
.	.	.	.	.	.	.	.	.	.	.	.	.	.	.	.	.	.	.	.	.	.	.	.	.	.	.	.	.	.	.	.	.	16f/JJ	.	.	.	.	.	.	.	.	.	.	.
.	.	.	.	.	.	.	.	.	.	.	.	.	.	.	.	.	.	.	.	.	.	.	.	.	.	.	.	.	.	.	.	.	4f/	.	.	.	.	.	.	.	.	.	.	.
.	.	.	.	.	.	.	.	.	.	.	.	.	.	.	.	.	.	.	.	.	.	.	.	.	.	.	.	.	.	.	.	.	8r	.	.	.	.	.	.	.	.	.	.	.
.	.	.	.	.	.	.	.	.	.	.	.	.	.	.	.	.	.	.	.	.	.	.	.	.	.	.	.	.	.	.	.	.	16f/LL	.	.	.	.	.	.	.	.	.	.	.
.	.	.	.	.	.	.	.	.	.	.	.	.	.	.	.	.	.	.	.	.	.	.	.	.	.	.	.	.	.	.	.	.	16f/JJ	.	.	.	.	.	.	.	.	.	.	.
=2	=2	=2	=2	=2	=2	=2	=2	=2	=2	=2	=2	=2	=2	=2	=2	=2	=2	=2	=2	=2	=2	=2	=2	=2	=2	=2	=2	=2	=2	=2	=2	=2	=2	=2	=2	=2	=2	=2	=2	=2	=2	=2	=2	=2
2r	.	1r	.	.	.	1r	.	.	.	1r	.	.	.	1r	.	.	.	.	2r	.	2r	.	2r	.	2r	.	2r	.	2r	.	2r	.	4f/	.	2r	.	1r	.	2r	.	2r	.	2r	.
.	.	.	.	.	.	.	.	.	.	.	.	.	.	.	.	.	.	.	.	.	.	.	.	.	.	.	.	.	.	.	.	.	8r	.	.	.	.	.	.	.	.	.	.	.
.	.	.	.	.	.	.	.	.	.	.	.	.	.	.	.	.	.	.	.	.	.	.	.	.	.	.	.	.	.	.	.	.	16f/LL	.	.	.	.	.	.	.	.	.	.	.
.	.	.	.	.	.	.	.	.	.	.	.	.	.	.	.	.	.	.	.	.	.	.	.	.	.	.	.	.	.	.	.	.	16f/JJ	.	.	.	.	.	.	.	.	.	.	.
4r	.	.	.	.	.	.	.	.	.	.	.	.	.	.	.	.	.	.	4r	.	8r	.	8r	.	4r	.	4r	.	4r	.	4r	.	4f/	.	4r	.	.	.	8r	.	8r	.	8r	.
.	.	.	.	.	.	.	.	.	.	.	.	.	.	.	.	.	.	.	.	.	(8f/L	.	(8f/L	f	.	.	.	.	.	.	.	.	.	.	.	.	.	.	(8f/L	.	(8ff\L	.	8ff\L	.
8r	.	.	.	.	.	.	.	.	.	.	.	.	.	.	.	.	.	.	8r	.	8en/	.	8g/	.	8r	.	8r	.	8r	.	8r	.	8r	.	8r	.	.	.	8g/ 8eX/	.	8een\	.	8gg\	.
!	!	!	!	!	!	!	!	!	!	!	!	!	!	!	!	!	!	!	!	!	!	!	!	!	!	!	!	!	!	!	!	!	!	!	!	!	!	!	!	!	!	!	!LO:TX:t=P:problem:skreślona repetycja	!
.	.	.	.	.	.	.	.	.	.	.	.	.	.	.	.	.	.	.	.	.	.	.	.	.	.	.	.	.	.	.	.	.	.	.	.	f	.	.	.	.	.	.	.	.
8F\	f	.	.	.	.	.	.	.	.	.	.	.	.	.	.	.	.	.	8f\	.	8e-X/J)	.	8a/J)	.	8F\	.	8c\	.	8c\	.	8F\	f	16f/LL	.	8F\	.	.	.	8a/J 8e-/	.	8ee-X\J)	.	8aa\J	.
.	.	.	.	.	.	.	.	.	.	.	.	.	.	.	.	.	.	.	.	.	.	.	.	.	.	.	.	.	.	.	.	.	16f/JJ	.	.	.	.	.	.	.	.	.	.	.
=3!|:	=3!|:	=3!|:	=3!|:	=3!|:	=3!|:	=3!|:	=3!|:	=3!|:	=3!|:	=3!|:	=3!|:	=3!|:	=3!|:	=3!|:	=3!|:	=3!|:	=3!|:	=3!|:	=3!|:	=3!|:	=3!|:	=3!|:	=3!|:	=3!|:	=3!|:	=3!|:	=3!|:	=3!|:	=3!|:	=3!|:	=3!|:	=3!|:	=3!|:	=3!|:	=3!|:	=3!|:	=3!|:	=3!|:	=3!|:	=3!|:	=3!|:	=3!|:	=3!|:	=3!|:
*	*	*	*	*	*	*	*	*	*	*	*	*	*	*	*	*	*	*	*	*	*	*	*	*	*	*	*	*	*	*	*	*	*	*	*	*	*	*	*^	*	*	*	*	*
*tremolo	*	*	*	*	*	*	*	*	*	*	*	*	*	*	*	*	*	*	*tremolo	*	*tremolo	*	*tremolo	*	*	*	*	*	*	*	*	*	*	*	*	*	*	*	*	*2\right	*	*2\right	*	*	*
*	*	*	*	*	*	*	*	*	*	*	*	*	*	*	*	*	*	*	*2\right	*	*	*	*	*	*	*	*	*	*	*	*	*	*	*	*	*	*	*	*	*	*	*	*	*	*
!	!	!	!	!	!	!	!	!	!	!	!	!	!	!	!	!	!	!LO:DY:rj:a	!	!	!	!	!	!	!	!	!	!	!	!	!	!	!	!	!	!	!	!	!	!	!	!	!	!	!
8BB-/L	.	2BB-/	3.) I	.	.	2B-\	2.) Ty	.	.	2d/	.	.	.	4b-/	1.)To-	.	.	f	8f\ 8B-\L	.	8d/L	.	8b-/L	.	4BB-/	.	4B-\	.	4d\	.	4BB-/	.	4b-/ 4B-/	.	8BB-\L	.	1r	.	4b-/	2d\)	.	(2dd\	.	4bb-\	.
8BB-/	.	.	.	.	.	.	.	.	.	.	.	.	.	.	.	.	.	.	8f\ 8B-\	.	8d/	.	8b-/J	.	.	.	.	.	.	.	.	.	.	.	8B-\	.	.	.	.	.	.	.	.	.	.
8BB-/	.	.	.	.	.	.	.	.	.	.	.	.	.	4f/	.	.	.	.	8f\ 8B-\	.	8d/	.	8f/L	.	4r	.	4r	.	4r	.	4r	.	4r	.	8B-\	.	.	.	4f/	.	.	.	.	4ff\	.
8BB-/J	.	.	.	.	.	.	.	.	.	.	.	.	.	.	.	.	.	.	8f\ 8B-\J	.	8d/J	.	8f/J	.	.	.	.	.	.	.	.	.	.	.	8B-\J	.	.	.	.	.	.	.	.	.	.
8BB-/L	.	4BB-/	Ty	.	.	4B-\	Bo-	.	.	4e-/	.	.	.	4g/	-bie	.	.	.	8g\ 8B-\L	.	8e-/L	.	8g/L	.	2r	.	2r	.	2r	.	2r	.	2r	.	8BB-\L	.	.	.	4g/	4e-\	.	4ee-\)	.	4gg\	.
8BB-/	.	.	.	.	.	.	.	.	.	.	.	.	.	.	.	.	.	.	8g\ 8B-\J	.	8e-/	.	8g/J	.	.	.	.	.	.	.	.	.	.	.	8B-\	.	.	.	.	.	.	.	.	.	.
8BB-/	.	4BB-/	któ-	.	.	4c\	-że	.	.	4e-/	.	.	.	4a/	cześć	.	.	.	8f\ 8c\L	.	8e-/	.	8a/L	.	.	.	.	.	.	.	.	.	.	.	8BB-\	.	.	.	4a/	4e-\	.	4ee-'\	.	4aa\	.
8BB-/J	.	.	.	.	.	.	.	.	.	.	.	.	.	.	.	.	.	.	8f\ 8c\J	.	8e-/J	.	8a/J	.	.	.	.	.	.	.	.	.	.	.	8B-\J	.	.	.	.	.	.	.	.	.	.
*Xtremolo	*	*	*	*	*	*	*	*	*	*	*	*	*	*	*	*	*	*	*	*	*	*	*	*	*	*	*	*	*	*	*	*	*	*	*	*	*	*	*	*	*	*	*	*	*
*	*	*	*	*	*	*	*	*	*	*	*	*	*	*	*	*	*	*	*	*	*	*	*	*	*	*	*	*	*	*	*	*	*	*	*	*	*	*	*v	*v	*	*	*	*	*
=4	=4	=4	=4	=4	=4	=4	=4	=4	=4	=4	=4	=4	=4	=4	=4	=4	=4	=4	=4	=4	=4	=4	=4	=4	=4	=4	=4	=4	=4	=4	=4	=4	=4	=4	=4	=4	=4	=4	=4	=4	=4	=4	=4	=4
*	*	*	*	*	*	*	*	*	*	*	*	*	*	*^	*	*	*	*	*	*	*	*	*	*	*	*	*	*	*	*	*	*	*	*	*	*	*^	*	*	*	*	*	*	*
*	*	*	*	*	*	*	*	*	*	*	*	*	*	*	*	*	*	*	*	*	*	*	*	*2\right	*	*	*	*	*	*	*	*	*	*	*	*	*	*	*	*	*	*	*	*	*	*
!	!	!	!	!	!	!	!	!	!	!	!	!	!	!	!	!	!	!	!	!	!	!	!	!	!	!	!	!	!	!	!	!	!	!	!	!	!LO:DY:a	!	!	!	!	!	!	!	!	!
8BB-/L	.	4.BB-/	-ry	.	.	4.d\ 4.B-\	Sy-	.	.	4.d/	.	.	.	4.b-/	2ryy	To-	.	.	.	8f\ 8B-\L	.	8d/L	.	8b-\L	.	4.BB-/	.	4.D/	.	4.B-/	.	4.BB-/	.	4.b-/ 4.d/	.	8BB-\L	f	4.f\	4.B-\	f	4.b-/ 4.d/	.	4.dd\	.	4.bb-\	.
8D/	.	.	.	.	.	.	.	.	.	.	.	.	.	.	.	.	.	.	.	8f\ 8B-\	.	8d/	.	8b-\	.	.	.	.	.	.	.	.	.	.	.	8D\	.	.	.	.	.	.	.	.	.	.
8F/	.	.	.	.	.	.	.	.	.	.	.	.	.	.	.	.	.	.	.	8f\ 8B-\	.	8d/	.	8b-\	.	.	.	.	.	.	.	.	.	.	.	8F\	.	.	.	.	.	.	.	.	.	.
8BB-/J	.	8B-\	rę-	.	.	8d\ 8B-\	-nu	.	.	8d/	.	.	.	8b-/	.	-bie	.	.	.	8f\ 8B-\J	.	8d/J	.	8b-\J	.	8BB-/	.	8D/	.	8B-/	.	8BB-/	.	8b-/ 8d/	.	8BB-\J	.	8f\	8B-\	.	8b-/ 8d/	.	8dd\	.	8bb-\	.
8AA/L	.	4A\	-ka-	.	.	4c\	Bo-	.	.	4f/	.	.	.	4cc/	4cc\	wie-	.	.	.	8f\ 8A\L	.	8f/L	.	8cc\L	.	4AA/	.	4F/	.	4c/	.	4F\	.	4cc/ 4f/	.	8AA\L	.	4f/	4f\	.	4cc/ 4f/	.	4ff\	.	4ccc\	.
8C/	.	.	.	.	.	.	.	.	.	.	.	.	.	.	.	.	.	.	.	8f\ 8A\	.	8f/	.	8cc\	.	.	.	.	.	.	.	.	.	.	.	8C\	.	.	.	.	.	.	.	.	.	.
8F/	.	8AA\	-mi	.	.	8c\	-ga	.	.	8f/	.	.	.	8cc/	8cc\	-czna	.	.	.	8f\ 8A\	.	8f/	.	8cc\	.	4AA/	.	4F/	.	4c/	.	4F\	.	4cc/ 4f/	.	8F\	.	4f/	4f\	.	4cc/ 4f/	.	4ff\	.	4ccc\	.
8AA/J	.	8AA\	stra-	.	.	8c\	coś	.	.	8f/	.	.	.	8cc/	8cc\	.	.	.	.	8f\ 8A\J	.	8f/J	.	8cc\J	.	.	.	.	.	.	.	.	.	.	.	8AA\J	.	.	.	.	.	.	.	.	.	.
!!LO:PB:g=original
=5	=5	=5	=5	=5	=5	=5	=5	=5	=5	=5	=5	=5	=5	=5	=5	=5	=5	=5	=5	=5	=5	=5	=5	=5	=5	=5	=5	=5	=5	=5	=5	=5	=5	=5	=5	=5	=5	=5	=5	=5	=5	=5	=5	=5	=5	=5
*	*	*	*	*	*	*^	*	*	*	*^	*	*	*	*	*	*	*	*	*	*^	*	*	*	*	*	*	*	*	*	*	*	*	*	*^	*	*	*	*	*	*	*^	*	*	*	*	*
*	*	*	*	*	*	*	*	*	*	*	*	*	*	*	*	*	*	*	*	*	*	*	*	*	*2\right	*	*	*	*	*	*	*	*	*	*	*	*	*	*	*	*	*	*	*	*	*	*	*	*	*	*
!	!	!	!	!	!	!	!	!	!	!	!	!	!	!	!	!	!	!	!	!	!	!	!	!	!	!	!	!	!	!	!	!	!	!	!	!	!	!	!	!	!	!	!	!	!	!	!	!	!	!LO:TX:t=P:problem:dorysowana repetycja	!
!	!	!	!	!	!	!	!	!	!	!	!	!	!	!	!	!	!	!	!	!	!	!	!	!	!	!	!	!	!	!	!	!	!	!	!	!	!	!	!	!	!	!	!	!	!	!	!	!	!	!LO:TX:a:t=P:problem:"tur" niebieską kredką	!
8BB-/L	.	(4.BB-/	-pio-	.	.	2d/ 2B-/	4.d\ 4.B-\	coś	.	.	2b-/	4.b-\	chwa-	.	.	2dd/	4.dd\	chwa-	.	.	.	8f/L	8B-\L	.	8b-\L	.	8dd\L	.	4.BB-/	.	4.B-\	.	4.d\	.	2BB-T/	.	4.dd/	4.b-\	.	8BB-/L	.	4.f/ 4.B-/	2ryy	.	4.dd/	4.b-\	.	4.bb-\	.	4.ddd\	.
8FF/	.	.	.	.	.	.	.	.	.	.	.	.	.	.	.	.	.	.	.	.	.	8f/	8B-\	.	8b-\	.	8dd\	.	.	.	.	.	.	.	.	.	.	.	.	8FF/	.	.	.	.	.	.	.	.	.	.	.
8BB-/	.	.	.	.	.	.	.	.	.	.	.	.	.	.	.	.	.	.	.	.	.	8f/	8B-\	.	8b-\	.	8dd\	.	.	.	.	.	.	.	.	.	.	.	.	8BB-/	.	.	.	.	.	.	.	.	.	.	.
8D/J	.	8D/)	.	.	.	.	8d\ 8B-\	no-	.	.	.	8b-\	-ła	.	.	.	8dd\	-ła	.	.	.	8f/J	8d\J	.	8b-\J	.	8dd\J	.	8D/	.	8B-\	.	8d\	.	.	.	8dd/	8b-\	.	8D/J	.	8f/ 8B-/	.	.	8dd/	8b-\	.	8bb-\	.	8ddd\	.
*tremolo	*	*	*	*	*	*	*	*	*	*	*	*	*	*	*	*	*	*	*	*	*	*	*	*	*	*	*	*	*	*	*	*	*	*	*	*	*	*	*	*	*	*	*	*	*	*	*	*	*	*	*
!	!	!	!	!	!	!	!	!	!	!	!	!	!	!	!	!	!	!	!	!	!	!	!	!	!	!	!	!	!	!	!	!	!	!	!	!	!	!	!	!LO:TX:t=P:problem:mixed beam	!	!	!	!	!	!	!	!	!	!	!
8F\L	.	4F\	-nych	.	.	4c\	4A\	-wem	.	.	4a/	2ryy	Oy-	.	.	2ryy	4cc\	Oy-	.	.	.	8f/L	8f\L	.	8a/L	.	8cc\L	.	4F\	.	4A\	.	4c\	.	4F\	.	4cc/	4a\	.	8F\L	.	4f/	4f\	.	4cc/	4a\	.	4aa\	.	4ccc\	.
8F\J	.	.	.	.	.	.	.	.	.	.	.	.	.	.	.	.	.	.	.	.	.	8f/	8f\	.	8a/J	.	8cc\J	.	.	.	.	.	.	.	.	.	.	.	.	8FF/	.	.	.	.	.	.	.	.	.	.	.
8F\L	.	4F\	do-	.	.	4B-/	4G\	przy-	.	.	4g/	.	-cze	.	.	.	4b-\	-cze	.	.	.	8f/	8f\	.	8g/L	.	8b-\L	.	4F\	.	4G\	.	4B-/	.	4F\	.	4b-/	4g\	.	8F\	.	4f/	4f\	.	4b-/	4g\	.	4gg\	.	4bb-\	.
8F\J	.	.	.	.	.	.	.	.	.	.	.	.	.	.	.	.	.	.	.	.	.	8f/J	8f\J	.	8g/J	.	8b-\J	.	.	.	.	.	.	.	.	.	.	.	.	8FF/J	.	.	.	.	.	.	.	.	.	.	.
*Xtremolo	*	*	*	*	*	*	*	*	*	*	*	*	*	*	*	*	*	*	*	*	*	*	*	*	*	*	*	*	*	*	*	*	*	*	*	*	*	*	*	*	*	*	*	*	*	*	*	*	*	*	*
*	*	*	*	*	*	*	*	*	*	*	*v	*v	*	*	*	*	*	*	*	*	*	*v	*v	*	*	*	*	*	*	*	*	*	*	*	*	*	*	*	*	*	*	*	*	*	*	*	*	*	*	*	*
*	*	*	*	*	*	*	*	*	*	*	*	*	*	*	*v	*v	*	*	*	*	*	*	*	*	*	*	*	*	*	*	*	*	*	*	*	*	*	*	*	*	*	*	*	*	*	*	*	*	*
=6	=6	=6	=6	=6	=6	=6	=6	=6	=6	=6	=6	=6	=6	=6	=6	=6	=6	=6	=6	=6	=6	=6	=6	=6	=6	=6	=6	=6	=6	=6	=6	=6	=6	=6	=6	=6	=6	=6	=6	=6	=6	=6	=6	=6	=6	=6	=6	=6
*	*	*2\right	*	*	*	*	*2\right	*	*	*	*	*	*	*	*2\right	*	*	*	*	*	*	*	*	*	*	*2\right	*	*2\right	*	*2\right	*	*2\right	*	*	*2\right	*	*	*	*	*2\right	*	*	*	*	*	*	*2\right	*
8F\L	.	2F\	-tknię-	.	.	2c/	2A\	-nie-	.	.	2a/	Bo-	.	.	2cc\	Bo-	.	.	.	8f\L	.	8a/L	.	8cc\L	.	2F\	.	2A\	.	2c\	.	2FT\	.	2cc/	2a\	.	8F\L	.	2f/	2f\	.	2cc/	2a\	.	2aa\	.	2ccc\	.
8F\	.	.	.	.	.	.	.	.	.	.	.	.	.	.	.	.	.	.	.	8f\	.	8a/	.	8cc\	.	.	.	.	.	.	.	.	.	.	.	.	8F\	.	.	.	.	.	.	.	.	.	.	.
8C\	.	.	.	.	.	.	.	.	.	.	.	.	.	.	.	.	.	.	.	8f\	.	8a/	.	8cc\	.	.	.	.	.	.	.	.	.	.	.	.	8C\	.	.	.	.	.	.	.	.	.	.	.
8AA\J	.	.	.	.	.	.	.	.	.	.	.	.	.	.	.	.	.	.	.	8f\J	.	8a/J	.	8cc\J	.	.	.	.	.	.	.	.	.	.	.	.	8AA\J	.	.	.	.	.	.	.	.	.	.	.
*	*	*	*	*	*	*	*	*	*	*	*	*	*	*	*	*	*	*	*	*Xtremolo	*	*	*	*	*	*	*	*	*	*	*	*	*	*	*	*	*	*	*	*	*	*	*	*	*	*	*	*
4FF/	.	4F\	-ty	.	.	4c/	4A\	-siem	.	.	4a/	-że	.	.	4cc\	-że	.	.	.	4f\	.	4a/	.	4cc\	.	4F\	.	4A\	.	4c\	.	4F\	.	4cc/	4a\	.	4FF/	.	4f/	4f\	.	4cc/	4a\	.	4aa\	.	4ccc\	.
4r	.	4r	.	.	.	4r	4ryy	.	.	.	4f/	Coś	.	.	4r	.	.	.	.	4r	.	4r	.	4r	.	4r	.	4r	.	4r	.	4r	.	4r	4ryy	.	4r	.	4f/	4f\	.	4ff'\	4ryy	.	4r	.	4r	.
*	*	*	*	*	*	*v	*v	*	*	*	*	*	*	*	*	*	*	*	*	*	*	*	*	*	*	*	*	*	*	*	*	*	*	*v	*v	*	*	*	*	*	*	*v	*v	*	*	*	*	*
=7	=7	=7	=7	=7	=7	=7	=7	=7	=7	=7	=7	=7	=7	=7	=7	=7	=7	=7	=7	=7	=7	=7	=7	=7	=7	=7	=7	=7	=7	=7	=7	=7	=7	=7	=7	=7	=7	=7	=7	=7	=7	=7	=7	=7	=7
*^	*	*	*	*	*	*	*	*	*	*^	*	*	*	*	*	*	*	*	*	*	*	*	*	*	*	*	*	*	*	*	*	*	*	*	*	*	*	*	*	*	*	*	*	*	*
2r	1r	.	1r	.	.	.	2r	.	.	.	2f/	4f\	stwo-	Dzie-	sro-	2r	.	.	.	.	2r	.	2r	.	2r	.	1r	.	1r	.	1r	.	1r	.	1r	.	1r	.	[1f/	[1f\	.	2.ff'\	.	2r	.	2r	.
.	.	.	.	.	.	.	.	.	.	.	.	4f\	-rzył	-ci	-gą	.	.	.	.	.	.	.	.	.	.	.	.	.	.	.	.	.	.	.	.	.	.	.	.	.	.	.	.	.	.	.	.
4r	.	.	.	.	.	.	4r	.	.	.	4f/	4ryy	.	z Oy-	.	4r	.	.	.	.	4r	.	4r	.	4r	.	.	.	.	.	.	.	.	.	.	.	.	.	.	.	.	.	.	4r	.	4r	.
*	*	*	*	*	*	*	*	*	*	*	*	*	*	*	*	*	*	*	*	*	*tremolo	*	*	*	*	*	*	*	*	*	*	*	*	*	*	*	*	*	*	*	*	*	*	*	*	*	*
4e-/	.	.	.	.	.	.	8e-\	Wszy-	i	su-	8f/	4f\	wszy-	-cem	su	8a\	Wszy-	.	.	.	8e-\L	.	8f/L	.	8a/L	.	.	.	.	.	.	.	.	.	.	.	.	.	.	.	.	(4ee-\	.	4ff\	.	(4aa\	.
.	.	.	.	.	.	.	8e-\	-stkie	.	.	8f/	.	-stkie	i	.	8a\	-stkie	.	.	.	8e-\J	.	8f/J	.	8a/J	.	.	.	.	.	.	.	.	.	.	.	.	.	.	.	.	.	.	.	.	.	.
*	*	*	*	*	*	*	*	*	*	*	*v	*v	*	*	*	*	*	*	*	*	*	*	*	*	*	*	*	*	*	*	*	*	*	*	*	*	*	*	*	*	*	*	*	*	*	*	*
=8	=8	=8	=8	=8	=8	=8	=8	=8	=8	=8	=8	=8	=8	=8	=8	=8	=8	=8	=8	=8	=8	=8	=8	=8	=8	=8	=8	=8	=8	=8	=8	=8	=8	=8	=8	=8	=8	=8	=8	=8	=8	=8	=8	=8	=8	=8
*	*	*	*	*	*	*	*	*	*	*	*	*	*	*	*^	*	*	*	*	*	*	*	*	*	*	*	*	*	*	*	*	*	*	*	*	*	*	*	*	*	*	*	*	*	*	*
4d/	2r	.	2r	.	.	.	(4d\	rze-	zie-	-mie-	2f/	rze-	zie-	mie	2ryy	(4b-\	rze-	.	.	.	8d\L	.	8f/L	.	8b-\L	.	2r	.	1r	.	1r	.	1r	.	1r	.	2r	.	2.f/]	2.f\]	.	(4dd\)	.	2.ff\	.	4bb-\	.
.	.	.	.	.	.	.	.	.	.	.	.	.	.	.	.	.	.	.	.	.	8d\J	.	8f/J	.	8b-\J	.	.	.	.	.	.	.	.	.	.	.	.	.	.	.	.	.	.	.	.	.	.
(4An/	.	.	.	.	.	.	4A\)	.	.	.	.	.	.	.	.	4cc\)	.	.	.	.	8An/L	.	8f/L	.	8cc\L	.	.	.	.	.	.	.	.	.	.	.	.	.	.	.	.	4a\	.	.	.	4ccc\	.
.	.	.	.	.	.	.	.	.	.	.	.	.	.	.	.	.	.	.	.	.	8An/J	.	8f/J	.	8cc\J	.	.	.	.	.	.	.	.	.	.	.	.	.	.	.	.	.	.	.	.	.	.
!	!	!LO:DY:b	!	!	!	!	!	!	!	!	!	!	!	!	!	!	!	!	!	!	!	!	!	!	!	!	!	!	!	!	!	!	!	!	!	!	!	!	!	!	!	!	!	!	!	!	!
4B-/)	4r	f	4r	.	.	.	4B-\	-czy	-mię	-nia	4f/	-czy	-mię	.	2dd/	4dd\	-czy	.	.	.	2B-/	.	8b-\L	.	8dd\L	.	4r	.	.	.	.	.	.	.	.	.	4r	.	.	.	.	4b-\)	.	.	.	4ddd\)	.
.	.	.	.	.	.	.	.	.	.	.	.	.	.	.	.	.	.	.	.	.	.	.	8b-\	.	8dd\	.	.	.	.	.	.	.	.	.	.	.	.	.	.	.	.	.	.	.	.	.	.
4B-/	4BB-\	.	4BB-/	.	.	.	4d\ 4B-\	i	z nie-	u-	4b-\	i	z nie-	.	.	4dd\	i	.	.	.	.	.	8b-\	.	8dd\	.	4BB-/	.	.	.	.	.	.	.	.	.	4BB-/	.	4r	4r	.	4dd\ 4b-\	.	4bb-\	.	4ddd'\	.
.	.	.	.	.	.	.	.	.	.	.	.	.	.	.	.	.	.	.	.	.	.	.	8b-\J	.	8dd\J	.	.	.	.	.	.	.	.	.	.	.	.	.	.	.	.	.	.	.	.	.	.
*v	*v	*	*	*	*	*	*	*	*	*	*	*	*	*	*	*	*	*	*	*	*	*	*	*	*	*	*	*	*	*	*	*	*	*	*	*	*	*	*	*	*	*	*	*	*	*	*
=9	=9	=9	=9	=9	=9	=9	=9	=9	=9	=9	=9	=9	=9	=9	=9	=9	=9	=9	=9	=9	=9	=9	=9	=9	=9	=9	=9	=9	=9	=9	=9	=9	=9	=9	=9	=9	=9	=9	=9	=9	=9	=9	=9	=9	=9	=9
*	*	*^	*	*	*	*^	*	*	*	*^	*	*	*	*	*	*	*	*	*	*	*	*	*	*	*	*	*	*	*	*	*	*	*	*^	*	*	*	*	*	*	*^	*	*	*	*	*
*tremolo	*	*	*	*	*	*	*	*	*	*	*	*	*	*	*	*	*	*	*	*	*	*	*	*	*	*	*	*	*	*	*	*	*	*	*	*	*	*	*	*tremolo	*	*	*	*	*	*	*	*	*	*	*
*2\right	*	*	*	*	*	*	*	*	*	*	*	*	*	*	*	*	*	*	*	*	*	*	*	*	*	*	*	*	*	*	*	*	*	*	*	*	*	*	*	*2\right	*	*	*	*	*	*	*	*	*	*	*
8G\L	.	4.G/	2G\	.	.	.	4.d/ 4.B-/	2A\	rzą-	-bio-	.	4.b-/	2b-\	rzą-	-bio-	u-	4.dd/	2dd\	rzą-	.	.	.	8g\L	.	8b-\L	.	8dd\L	.	2G\	.	2B-\	.	2d\	.	2BB-T/	.	2dd/	2b-\	.	8G\L	.	2g/	2g\	.	2dd/	2b-\	.	2bb-\	.	2ddd\	.
8G\	.	.	.	.	.	.	.	.	.	.	.	.	.	.	.	.	.	.	.	.	.	.	8g\	.	8b-\	.	8dd\	.	.	.	.	.	.	.	.	.	.	.	.	8G\	.	.	.	.	.	.	.	.	.	.	.
8G\	.	.	.	.	.	.	.	.	.	.	.	.	.	.	.	.	.	.	.	.	.	.	8g\	.	8b-\	.	8dd\	.	.	.	.	.	.	.	.	.	.	.	.	8G\	.	.	.	.	.	.	.	.	.	.	.
8G\J	.	8G/	.	.	.	.	8d/ 8B-/	.	-dzisz	.	-śmie-	8b-/	.	.	.	-śmie-	8dd/	.	.	.	.	.	8g\J	.	8b-\	.	8dd\	.	.	.	.	.	.	.	.	.	.	.	.	8G\J	.	.	.	.	.	.	.	.	.	.	.
8F\L	.	4F\	2ryy	.	.	.	4d\ 4B-\	2ryy	.	-sy	-rza-	4b-\	2ryy	-dzisz	-sy	-rza-	4dd\	2ryy	-dzisz	.	.	.	8f\L	.	8b-\	.	8dd\	.	4F\	.	4B-\	.	4d\	.	4BB-/	.	4dd/	4b-\	.	8F\L	.	4f/	4f\	.	4dd/	4b-\	.	4bb-\	.	4ddd\	.
8F\J	.	.	.	.	.	.	.	.	.	.	.	.	.	.	.	.	.	.	.	.	.	.	8f\J	.	8b-\	.	8dd\	.	.	.	.	.	.	.	.	.	.	.	.	8F\J	.	.	.	.	.	.	.	.	.	.	.
8En\L	.	4En\	.	.	.	.	4d\ 4B-\	.	wszy-	zje-	-jąc	4b-\	.	wszy-	zje-	-iąc	4dd\	.	wszy-	.	.	.	8en\L	.	8b-\	.	8dd\	.	4En\	.	4B-\	.	4d\	.	4BB-/	.	4dd/	4b-\	.	8En\L	.	4enX/	4enX\	.	4dd/	4b-\	.	4bb-\	.	4ddd\	.
8En\J	.	.	.	.	.	.	.	.	.	.	.	.	.	.	.	.	.	.	.	.	.	.	8en\J	.	8b-\J	.	8dd\J	.	.	.	.	.	.	.	.	.	.	.	.	8En\J	.	.	.	.	.	.	.	.	.	.	.
*Xtremolo	*	*	*	*	*	*	*	*	*	*	*	*	*	*	*	*	*	*	*	*	*	*	*	*	*	*	*	*	*	*	*	*	*	*	*	*	*	*	*	*Xtremolo	*	*	*	*	*	*	*	*	*	*	*
*	*	*	*	*	*	*	*	*	*	*	*	*v	*v	*	*	*	*	*	*	*	*	*	*	*	*	*	*	*	*	*	*	*	*	*	*	*	*	*	*	*	*	*	*	*	*	*	*	*	*	*	*
*	*	*v	*v	*	*	*	*	*	*	*	*	*	*	*	*	*v	*v	*	*	*	*	*	*	*	*	*	*	*	*	*	*	*	*	*	*	*	*	*	*	*	*	*	*	*	*	*	*	*	*	*
=10	=10	=10	=10	=10	=10	=10	=10	=10	=10	=10	=10	=10	=10	=10	=10	=10	=10	=10	=10	=10	=10	=10	=10	=10	=10	=10	=10	=10	=10	=10	=10	=10	=10	=10	=10	=10	=10	=10	=10	=10	=10	=10	=10	=10	=10	=10	=10	=10
!LO:TX:t=P:problem:mixed beam	!	!	!	!	!	!	!	!	!	!	!	!	!	!	!	!	!	!	!	!	!	!	!	!	!	!	!	!	!	!	!	!	!	!	!	!	!LO:TX:t=P:problem:mixed beam	!	!	!	!	!	!	!	!	!	!	!
8F\L	.	2F\	.	.	.	2d/	2B-\	-stkie-	-dno-	woy-	2b-\	-stkie-	-dno-	woy-	2dd\	-stkie-	.	.	.	8f\L	.	8b-\L	.	8dd\L	.	2F\	.	2B-\	.	2d\	.	2FT\	.	2dd/	2b-\	.	8F\L	.	2f/	2f\	.	2dd/	2b-\	.	2bb-\	.	2ddd\	.
8FF/	.	.	.	.	.	.	.	.	.	.	.	.	.	.	.	.	.	.	.	8f\	.	8b-\	.	8dd\	.	.	.	.	.	.	.	.	.	.	.	.	8FF/	.	.	.	.	.	.	.	.	.	.	.
8BB-/	.	.	.	.	.	.	.	.	.	.	.	.	.	.	.	.	.	.	.	8f\	.	8b-\	.	8dd\	.	.	.	.	.	.	.	.	.	.	.	.	8BB-/	.	.	.	.	.	.	.	.	.	.	.
8D/J	.	.	.	.	.	.	.	.	.	.	.	.	.	.	.	.	.	.	.	8f\J	.	8b-\J	.	8dd\J	.	.	.	.	.	.	.	.	.	.	.	.	8D/J	.	.	.	.	.	.	.	.	.	.	.
*	*	*	*	*	*	*	*	*	*	*	*	*	*	*	*	*	*	*	*	*Xtremolo	*	*	*	*	*	*	*	*	*	*	*	*	*	*	*	*	*	*	*	*	*	*	*	*	*	*	*	*
4F\	.	4F\	.	.	.	4c/	4A\	-mi	-czył	-nę	4a\	-mi	-czył	-nę	4cc\	-mi	.	.	.	4f\	.	4a\	.	4cc\	.	4F\	.	4A\	.	4c\	.	4F\	.	4cc/ 4f/	2ryy	.	4F\	.	4f/	4f\	.	4cc/	4a\	.	4aa\	.	4ccc\	.
4r	.	4r	.	.	.	4r	4ryy	.	.	.	4r	.	.	.	4r	.	.	.	.	4r	.	4r	.	4r	.	4r	.	4r	.	4r	.	4r	.	4r	.	.	4r	.	4r	4ryy	.	4r	4ryy	.	4r	.	4r	.
*	*	*	*	*	*	*	*	*	*	*	*	*	*	*	*	*	*	*	*	*	*	*	*	*	*	*	*	*	*	*	*	*	*	*	*	*	*	*	*v	*v	*	*	*	*	*	*	*	*
*	*	*	*	*	*	*	*	*	*	*	*	*	*	*	*	*	*	*	*	*	*	*	*	*	*	*	*	*	*	*	*	*	*	*v	*v	*	*	*	*	*	*v	*v	*	*	*	*	*
!!LO:PB:g=original
=11	=11	=11	=11	=11	=11	=11	=11	=11	=11	=11	=11	=11	=11	=11	=11	=11	=11	=11	=11	=11	=11	=11	=11	=11	=11	=11	=11	=11	=11	=11	=11	=11	=11	=11	=11	=11	=11	=11	=11	=11	=11	=11	=11	=11	=11
2f^>/	.	1r	.	.	.	2ryy	2f^\	Od-	Ty,	Lać	1r	.	.	.	1r	.	.	.	.	2f^\	.	1r	.	1r	.	1ryy	.	1ryy	.	1ryy	.	1ryy	.	1ryy	.	1ryy	.	1ryy	.	1ryy	.	1ryy	.	1ryy	.
*	*	*	*	*	*	*cue	*	*	*	*	*	*	*	*	*	*	*	*	*	*	*	*	*	*	*	*	*	*	*	*	*	*	*	*	*	*	*	*	*	*	*	*	*	*	*
2e-X^>/	.	.	.	.	.	4e-X/	2e-^\	-wróć	któ-	po-	.	.	.	.	.	.	.	.	.	2e-^\	.	.	.	.	.	.	.	.	.	.	.	.	.	.	.	.	.	.	.	.	.	.	.	.	.
.	.	.	.	.	.	4e-/	.	.	-ryś	.	.	.	.	.	.	.	.	.	.	.	.	.	.	.	.	.	.	.	.	.	.	.	.	.	.	.	.	.	.	.	.	.	.	.	.
*	*	*	*	*	*	*Xcue	*	*	*	*	*	*	*	*	*	*	*	*	*	*	*	*	*	*	*	*	*	*	*	*	*	*	*	*	*	*	*	*	*	*	*	*	*	*	*
*	*	*	*	*	*	*v	*v	*	*	*	*	*	*	*	*	*	*	*	*	*	*	*	*	*	*	*	*	*	*	*	*	*	*	*	*	*	*	*	*	*	*	*	*	*	*
=12	=12	=12	=12	=12	=12	=12	=12	=12	=12	=12	=12	=12	=12	=12	=12	=12	=12	=12	=12	=12	=12	=12	=12	=12	=12	=12	=12	=12	=12	=12	=12	=12	=12	=12	=12	=12	=12	=12	=12	=12	=12	=12	=12	=12
*	*	*	*	*	*	*	*	*	*	*	*	*	*	*^	*	*	*	*	*	*	*	*	*	*	*	*	*	*	*	*	*	*	*	*	*	*	*	*	*	*	*	*	*	*
2d^>/	.	1r	.	.	.	2d^\	od	za	-cie-	1r	.	.	.	2ff\	2ryy	Od-	Ty	Lać	.	2d^\	.	1r	.	2ff^<\	.	1ryy	.	1ryy	.	1ryy	.	1ryy	.	1ryy	.	1ryy	.	1ryy	.	1ryy	.	1ryy	.	1ryy	.
*	*	*	*	*	*	*	*	*	*	*	*	*	*	*	*cue	*	*	*	*	*	*	*	*	*	*	*	*	*	*	*	*	*	*	*	*	*	*	*	*	*	*	*	*	*	*
2c^>/	.	.	.	.	.	2c^\	nas	ród	-chy	.	.	.	.	2ee-\	4ee-/	-wróć	któ-	po-	.	2c^\	.	.	.	2ee-X^<\	.	.	.	.	.	.	.	.	.	.	.	.	.	.	.	.	.	.	.	.	.
.	.	.	.	.	.	.	.	.	.	.	.	.	.	.	4ee-/	.	-ryś	.	.	.	.	.	.	.	.	.	.	.	.	.	.	.	.	.	.	.	.	.	.	.	.	.	.	.	.
*	*	*	*	*	*	*	*	*	*	*	*	*	*	*	*Xcue	*	*	*	*	*	*	*	*	*	*	*	*	*	*	*	*	*	*	*	*	*	*	*	*	*	*	*	*	*	*
*	*	*	*	*	*	*	*	*	*	*	*	*	*	*v	*v	*	*	*	*	*	*	*	*	*	*	*	*	*	*	*	*	*	*	*	*	*	*	*	*	*	*	*	*	*	*
=13	=13	=13	=13	=13	=13	=13	=13	=13	=13	=13	=13	=13	=13	=13	=13	=13	=13	=13	=13	=13	=13	=13	=13	=13	=13	=13	=13	=13	=13	=13	=13	=13	=13	=13	=13	=13	=13	=13	=13	=13	=13	=13	=13	=13
*	*	*	*	*	*	*	*	*	*	*^	*	*	*	*	*	*	*	*	*	*	*	*	*	*	*	*	*	*	*	*	*	*	*	*	*	*	*	*	*	*	*	*	*	*
2B-^>/	.	1r	.	.	.	2B-\	od-	lu-	Lać	2f/	2ryy	Od-	Ty	Lać	2dd\	od	za	-cie-	.	2B-/	.	2f^/	.	2dd^\	.	1ryy	.	1ryy	.	1ryy	.	1ryy	.	1ryy	.	1ryy	.	1ryy	.	1ryy	.	1ryy	.	1ryy	.
*	*	*	*	*	*	*	*	*	*	*	*cue	*	*	*	*	*	*	*	*	*	*	*	*	*	*	*	*	*	*	*	*	*	*	*	*	*	*	*	*	*	*	*	*	*	*
2A^>/	.	.	.	.	.	2A\	-wróć	-dzki	po-	2f#X/	4f#\	-wróć	któ-	po-	2cc\	nas	ród	-chy	.	2A/	.	2f#X^/	.	2cc^\	.	.	.	.	.	.	.	.	.	.	.	.	.	.	.	.	.	.	.	.	.
.	.	.	.	.	.	.	.	.	.	.	4f#\	.	-ryś	.	.	.	.	.	.	.	.	.	.	.	.	.	.	.	.	.	.	.	.	.	.	.	.	.	.	.	.	.	.	.	.
*	*	*	*	*	*	*	*	*	*	*	*Xcue	*	*	*	*	*	*	*	*	*	*	*	*	*	*	*	*	*	*	*	*	*	*	*	*	*	*	*	*	*	*	*	*	*	*
=14	=14	=14	=14	=14	=14	=14	=14	=14	=14	=14	=14	=14	=14	=14	=14	=14	=14	=14	=14	=14	=14	=14	=14	=14	=14	=14	=14	=14	=14	=14	=14	=14	=14	=14	=14	=14	=14	=14	=14	=14	=14	=14	=14	=14	=14
*	*	*^	*	*	*	*^	*	*	*	*	*	*	*	*	*^	*	*	*	*	*	*	*	*	*	*	*	*	*	*	*	*	*	*	*	*	*	*	*	*	*	*	*	*	*	*
2G^<\	.	2ryy	2G\	Od-	Ty	Lać	2G/	2ryy	od-	Ty	-cie-	2g/	2ryy	od-	Ty	-cie-	2b-\	2ryy	Od-	któ-	Lać	.	2d/ 2G/	.	2g/	.	2b-^\	.	1ryy	.	1ryy	.	1ryy	.	1ryy	.	1ryy	.	1ryy	.	1ryy	.	1ryy	.	1ryy	.	1ryy	.
*	*	*	*	*	*	*	*cue	*	*	*	*	*	*cue	*	*	*	*	*cue	*	*	*	*	*	*	*	*	*	*	*	*	*	*	*	*	*	*	*	*	*	*	*	*	*	*	*	*	*	*
2C^<\	.	2C/	4C\	-wróć,	któ-	po-	4c/	2c\	-nas	któ-	-chy	2en/	4e\	-wróć	któ-	-chy	2cc\	4cc/	-wróć	-ryś	po-	.	2c\	.	2en/	.	2cc^\	.	.	.	.	.	.	.	.	.	.	.	.	.	.	.	.	.	.	.	.	.
.	.	.	4C\	.	-ryś	.	4c/	.	.	-ryś	po-	.	4e\	.	-ryś	po	.	4cc/	.	.	.	.	.	.	.	.	.	.	.	.	.	.	.	.	.	.	.	.	.	.	.	.	.	.	.	.	.	.
*	*	*	*	*	*	*	*Xcue	*	*	*	*	*	*Xcue	*	*	*	*	*Xcue	*	*	*	*	*	*	*	*	*	*	*	*	*	*	*	*	*	*	*	*	*	*	*	*	*	*	*	*	*	*
*	*	*v	*v	*	*	*	*	*	*	*	*	*v	*v	*	*	*	*v	*v	*	*	*	*	*	*	*	*	*	*	*	*	*	*	*	*	*	*	*	*	*	*	*	*	*	*	*	*	*	*
*	*	*	*	*	*	*v	*v	*	*	*	*	*	*	*	*	*	*	*	*	*	*	*	*	*	*	*	*	*	*	*	*	*	*	*	*	*	*	*	*	*	*	*	*	*	*
=15	=15	=15	=15	=15	=15	=15	=15	=15	=15	=15	=15	=15	=15	=15	=15	=15	=15	=15	=15	=15	=15	=15	=15	=15	=15	=15	=15	=15	=15	=15	=15	=15	=15	=15	=15	=15	=15	=15	=15	=15	=15	=15	=15	=15
2F\	.	2F\	od	za	-cie-	2c\	od	za	-cie-	2f/	od	za	cie-	(2b-\	od	za	-cie-	.	2c\	.	2f/	.	(2b-^\	.	1r	.	1r	.	1r	.	1r	.	1r	.	2r	.	1r	.	2r	.	2r	.	2r	.
4FF/	.	4F\	nas	ród	-chy	4c\	nas	.	-chy	4f/	nas	.	-chy	4a\)	nas	.	-chy	.	4c\	.	4f/	.	4a\)	.	.	.	.	.	.	.	.	.	.	.	4r	.	.	.	4r	.	4r	.	4r	.
4r	.	4E-X\	co	.	nie	4c\	co	ród	nie	4f/	co,	ród	nie	4a\	co	ród	Nie	.	4r	.	4r	.	4r	.	.	.	.	.	.	.	.	.	.	.	4e-\ 4E-\	.	.	.	4cc\ 4f\	.	4aa\ 4ff\	.	4aa\	.
=16	=16	=16	=16	=16	=16	=16	=16	=16	=16	=16	=16	=16	=16	=16	=16	=16	=16	=16	=16	=16	=16	=16	=16	=16	=16	=16	=16	=16	=16	=16	=16	=16	=16	=16	=16	=16	=16	=16	=16	=16	=16	=16	=16	=16
*	*	*^	*	*	*	*^	*	*	*	*^	*	*	*	*^	*	*	*	*	*	*	*	*	*	*	*	*	*	*	*	*	*	*	*	*	*	*	*	*	*^	*	*	*	*	*
1r	.	2ryy	2D\	po-	lu-	bie-	2ryy	2B-\	po-	ludz-	bie-	2ryy	2f/	po-	.	.	2ryy	2b-\	po-	lu-	bie-	.	1r	.	1r	.	1r	.	1r	.	1r	.	1r	.	1r	.	1r	.	2d\ 2D\	.	1r	.	2b-/	2f\	.	2bb-\ 2ff\	.	2bb-\	.
*	*	*	*	*	*	*	*cue	*	*	*	*	*cue	*	*	*	*	*	*	*	*	*	*	*	*	*	*	*	*	*	*	*	*	*	*	*	*	*	*	*	*	*	*	*	*	*	*	*	*	*
.	.	4E-/	2E-\	-kój	-dzki	-skie	4G/	2G\	-kój	-ki	-skie	4g/	2g\	-kój	.	.	4cc/	2cc\	-kój	-dzki	-skie	.	.	.	.	.	.	.	.	.	.	.	.	.	.	.	.	.	2e-\ 2E-\	.	.	.	2cc/	2g\	.	2bb-\ 2gg\	.	2ccc\	.
.	.	4E-/	.	.	krew	.	4G/	.	.	krew	.	4g/	.	.	.	.	4cc/	.	.	krew	.	.	.	.	.	.	.	.	.	.	.	.	.	.	.	.	.	.	.	.	.	.	.	.	.	.	.	.	.
*	*	*	*	*	*	*	*Xcue	*	*	*	*	*Xcue	*	*	*	*	*	*	*	*	*	*	*	*	*	*	*	*	*	*	*	*	*	*	*	*	*	*	*	*	*	*	*	*	*	*	*	*	*
*	*	*	*	*	*	*	*	*	*	*	*	*	*	*	*	*	*	*	*	*	*	*	*	*	*	*	*	*	*	*	*	*	*	*	*	*	*	*	*	*	*	*	*v	*v	*	*	*	*	*
=17	=17	=17	=17	=17	=17	=17	=17	=17	=17	=17	=17	=17	=17	=17	=17	=17	=17	=17	=17	=17	=17	=17	=17	=17	=17	=17	=17	=17	=17	=17	=17	=17	=17	=17	=17	=17	=17	=17	=17	=17	=17	=17	=17	=17	=17	=17	=17	=17
*	*	*	*	*	*	*	*	*	*	*	*	*	*	*	*	*	*	*	*	*	*	*	*	*	*	*	*	*	*	*	*	*	*	*	*	*	*	*	*	*	*^	*	*	*	*	*	*	*
1r	.	2F/	4.F\	du-	swo-	w ser-	2B-/	4.B-\	du-	.	.	4.f/	2f\	.	.	.	2dd/	4.dd\	du-	swo-	w ser-	.	1r	.	1r	.	1r	.	1r	.	1r	.	1r	.	1r	.	1r	.	4.f\ 4.F\	.	4.f/	4.f\	.	4.dd\ 4.b-\	.	4.bb-\ 4.ff\	.	4.ddd\	.
.	.	.	8F\	-szy	-ię	-ca	.	8B-\	-szy	.	.	8f/	.	.	.	.	.	8dd\	-szy	-ię	-ca	.	.	.	.	.	.	.	.	.	.	.	.	.	.	.	.	.	8f\ 8F\	.	8f/	8f\	.	8dd\ 8b-\	.	8bb-\ 8ff\	.	8ddd\	.
.	.	2ryy	4F\	mie-	.	Bo-	2ryy	4B-\	mie-	.	.	4f/	2ryy	.	.	.	2ryy	4dd\	mie-	.	Bo-	.	.	.	.	.	.	.	.	.	.	.	.	.	.	.	.	.	4f\ 4F\	.	4f/	4f\	.	4dd\ 4b-\	.	4bb-\ 4ff\	.	4ddd\	.
.	.	.	4F\	-szać	wy	-go	.	4B-\	-szać	.	.	4f/	.	.	.	.	.	4dd\	-szać	wy	-ga	.	.	.	.	.	.	.	.	.	.	.	.	.	.	.	.	.	4f\ 4F\	.	4f/	4f\	.	4dd\ 4b-\	.	4bb-\ 4ff\	.	4ddd\	.
*	*	*v	*v	*	*	*	*	*	*	*	*	*v	*v	*	*	*	*v	*v	*	*	*	*	*	*	*	*	*	*	*	*	*	*	*	*	*	*	*	*	*	*	*	*	*	*	*	*	*	*	*
*	*	*	*	*	*	*v	*v	*	*	*	*	*	*	*	*	*	*	*	*	*	*	*	*	*	*	*	*	*	*	*	*	*	*	*	*	*	*	*	*	*	*	*	*	*	*	*
!!LO:PB:g=original
=18	=18	=18	=18	=18	=18	=18	=18	=18	=18	=18	=18	=18	=18	=18	=18	=18	=18	=18	=18	=18	=18	=18	=18	=18	=18	=18	=18	=18	=18	=18	=18	=18	=18	=18	=18	=18	=18	=18	=18	=18	=18	=18	=18	=18	=18
*	*	*	*	*	*	*	*	*	*	*	*	*	*	*	*	*	*	*	*	*	*	*	*	*	*	*	*	*	*	*	*	*	*	*	*	*	*	*	*	*^	*	*^	*	*	*
2r	.	2F\	mo-	to-	boj-	(4B-/	.	.	.	2f/	.	.	.	2cc\	mo-	.	.	.	2r	.	2r	.	2r	.	2r	.	2r	.	2r	.	1r	.	2r	.	(2f\ 2F\	.	2.f/	2.f\	.	(2.cc/	4b-\	.	(4bb-/	2ff\	.	2.ccc\	.
.	.	.	.	.	.	8A/L	.	.	.	.	.	.	.	.	.	.	.	.	.	.	.	.	.	.	.	.	.	.	.	.	.	.	.	.	.	.	.	.	.	.	8a\L	.	8aa/L	.	.	.	.
.	.	.	.	.	.	8G/J)	.	.	.	.	.	.	.	.	.	.	.	.	.	.	.	.	.	.	.	.	.	.	.	.	.	.	.	.	.	.	.	.	.	.	8g\J	.	8gg/J	.	.	.	.
!	!	!	!	!	!	!	!	!	!	!	!	!	!	!	!	!	!	!	!	!	!	!	!	!	!	!	!	!	!	!	!	!	!	!	!	!	!	!	!	!	!	!	!	!LO:N:xstem	!	!	!
4r	.	4F\	-że	-czył	-ne	4A\	.	.	.	4f/	.	.	.	4cc\	-że	.	.	.	4r	.	4r	.	4r	.	4r	.	4r	.	4r	.	.	.	4ryy	.	4F/ 4FF/)	.	.	.	.	.	4a\	.	4aa/)	4ff/	.	.	.
!	!LO:DY:b	!	!	!	!	!	!	!	!	!	!	!	!	!	!	!	!	!	!	!	!	!	!	!	!	!LO:DY:a	!	!LO:DY:a	!	!	!	!	!	!	!	!	!	!	!LO:DY:a	!	!	!	!	!	!LO:DY:a	!	!
.	f	.	.	.	.	.	.	.	.	.	.	.	.	.	.	.	.	.	.	.	.	f	.	f	.	f	.	f	.	f	.	.	.	.	.	f	.	.	f	.	.	.	.	.	f	.	.
4F\	.	4F\	I	Nas	Przyjm	4A\	.	.	.	4f/	.	.	.	4dd\	I	.	.	.	4f\	f	4a/	.	4dd\	.	4F\	.	4A\	.	4d\	.	.	.	4dd\ 4a\	.	4F/ 4FF/	.	4f/	4f\	.	4dd'/)	4a\	.	4aa'/	4ff\	.	4ddd'\	.
=19	=19	=19	=19	=19	=19	=19	=19	=19	=19	=19	=19	=19	=19	=19	=19	=19	=19	=19	=19	=19	=19	=19	=19	=19	=19	=19	=19	=19	=19	=19	=19	=19	=19	=19	=19	=19	=19	=19	=19	=19	=19	=19	=19	=19	=19	=19	=19
*tremolo	*	*	*	*	*	*	*	*	*	*	*	*	*	*	*	*	*	*	*tremolo	*	*	*	*	*	*	*	*	*	*	*	*	*	*	*	*tremolo	*	*	*	*	*	*	*	*	*	*	*	*
8G^<\L	.	2G\	spraw	o-	cześć	2B-\	.	.	.	2e-/	.	.	.	2ee-\	spraw	.	.	.	8g^\L	.	8b-^\L	.	8ee-^\L	.	2G^<\	.	2B-^<\	.	2e-^<\	.	1r	.	2ee-\ 2b-^<\	.	8G/ 8GG/L	.	2g^/	2e-\	.	2ee-^/	2b-\	.	2bb-^/	2ee-\	.	2eee-'\	.
8G^\	.	.	.	.	.	.	.	.	.	.	.	.	.	.	.	.	.	.	8g^\	.	8b-\	.	8ee-^\	.	.	.	.	.	.	.	.	.	.	.	8G/ 8GG/	.	.	.	.	.	.	.	.	.	.	.	.
8G^\	.	.	.	.	.	.	.	.	.	.	.	.	.	.	.	.	.	.	8g^\	.	8b-\	.	8ee-^\	.	.	.	.	.	.	.	.	.	.	.	8G/ 8GG/	.	.	.	.	.	.	.	.	.	.	.	.
8G^\J	.	.	.	.	.	.	.	.	.	.	.	.	.	.	.	.	.	.	8g^\J	.	8b-\J	.	8ee-^\J	.	.	.	.	.	.	.	.	.	.	.	8G/ 8GG/J	.	.	.	.	.	.	.	.	.	.	.	.
8A^<\L	.	2A\	niech	-kryj	i	2c\	.	.	.	2f/	.	.	.	2ee-\	niech	.	.	.	8f^\L	.	8cc^\L	.	8ee-^\L	.	2A^<\	.	2c^<\	.	2e-^<\	.	.	.	2ee-\ 2cc^<\	.	8A/ 8AA/L	.	2f^/	2f\	.	2ee-^/	2cc\	.	2ccc^/	2ff\	.	2eee-'\	.
8A^\	.	.	.	.	.	.	.	.	.	.	.	.	.	.	.	.	.	.	8f^\	.	8cc\	.	8ee-^\	.	.	.	.	.	.	.	.	.	.	.	8A/ 8AA/	.	.	.	.	.	.	.	.	.	.	.	.
8A^\	.	.	.	.	.	.	.	.	.	.	.	.	.	.	.	.	.	.	8f^\	.	8cc\	.	8ee-^\	.	.	.	.	.	.	.	.	.	.	.	8A/ 8AA/	.	.	.	.	.	.	.	.	.	.	.	.
8A^\J	.	.	.	.	.	.	.	.	.	.	.	.	.	.	.	.	.	.	8f^\J	.	8cc\J	.	8ee-^\J	.	.	.	.	.	.	.	.	.	.	.	8A/ 8AA/J	.	.	.	.	.	.	.	.	.	.	.	.
=20	=20	=20	=20	=20	=20	=20	=20	=20	=20	=20	=20	=20	=20	=20	=20	=20	=20	=20	=20	=20	=20	=20	=20	=20	=20	=20	=20	=20	=20	=20	=20	=20	=20	=20	=20	=20	=20	=20	=20	=20	=20	=20	=20	=20	=20	=20	=20
*	*	*^	*	*	*	*^	*	*	*	*^	*	*	*	*^	*	*	*	*	*	*	*	*	*	*	*	*	*	*	*	*	*	*	*^	*	*	*	*	*	*	*	*	*	*	*	*	*	*
8B-^<\L	.	2B-\	2B-\	po-	Tw-	dzię-	2B-\	2B-\	.	.	.	2f/	2f/yy	.	.	.	2dd\	2dd\	po-	.	.	.	8f^\L	.	8b-^\L	.	8dd^\L	.	2B-^<\	.	2B-\	.	2d^<\	.	1r	.	2dd^</	2b-\	.	8B-\ 8BB-\L	.	2f^/	2f\	.	2dd/	1b-\	.	1bb-/	2ff^>\	.	2ddd'\	.
8B-^\	.	.	.	.	.	.	.	.	.	.	.	.	.	.	.	.	.	.	.	.	.	.	8f^\	.	8b-\	.	8dd^\	.	.	.	.	.	.	.	.	.	.	.	.	8B-\ 8BB-\	.	.	.	.	.	.	.	.	.	.	.	.
8B-^\	.	.	.	.	.	.	.	.	.	.	.	.	.	.	.	.	.	.	.	.	.	.	8f^\	.	8b-\	.	8dd^\	.	.	.	.	.	.	.	.	.	.	.	.	8B-\ 8BB-\	.	.	.	.	.	.	.	.	.	.	.	.
8B-^\J	.	.	.	.	.	.	.	.	.	.	.	.	.	.	.	.	.	.	.	.	.	.	8f^\J	.	8b-\J	.	8dd^\J	.	.	.	.	.	.	.	.	.	.	.	.	8B-\ 8BB-\J	.	.	.	.	.	.	.	.	.	.	.	.
8En^<\L	.	2E/	4En\	-kój	-jej	-ki	4G/	2G\	.	.	.	4g/	2g\	.	.	.	2cc\	4cc/	-kój	.	.	.	8g^\L	.	8b-^\L	.	8cc^\L	.	2En^<\	.	2B-\	.	2c^<\	.	.	.	2cc^</	2b-\	.	8En/ 8EEn/L	.	2g^/	2eX\	.	2cc/	.	.	.	2gg^>\	.	2ccc'\	.
8En^\	.	.	.	.	.	.	.	.	.	.	.	.	.	.	.	.	.	.	.	.	.	.	8g^\	.	8b-\	.	8cc^\	.	.	.	.	.	.	.	.	.	.	.	.	8En/ 8EEn/	.	.	.	.	.	.	.	.	.	.	.	.
8En^\	.	.	4E\	.	o-	.	4G/	.	.	.	.	4g/	.	.	.	.	.	4cc/	za-	.	.	.	8g^\	.	8b-\	.	8cc^\	.	.	.	.	.	.	.	.	.	.	.	.	8En/ 8EEn/	.	.	.	.	.	.	.	.	.	.	.	.
8En^\J	.	.	.	.	.	.	.	.	.	.	.	.	.	.	.	.	.	.	.	.	.	.	8g^\J	.	8b-\J	.	8cc^\J	.	.	.	.	.	.	.	.	.	.	.	.	8En/ 8EEn/J	.	.	.	.	.	.	.	.	.	.	.	.
=21	=21	=21	=21	=21	=21	=21	=21	=21	=21	=21	=21	=21	=21	=21	=21	=21	=21	=21	=21	=21	=21	=21	=21	=21	=21	=21	=21	=21	=21	=21	=21	=21	=21	=21	=21	=21	=21	=21	=21	=21	=21	=21	=21	=21	=21	=21	=21	=21	=21	=21	=21	=21
*	*	*cue	*	*	*	*	*cue	*	*	*	*	*	*cue	*	*	*	*	*cue	*	*	*	*	*	*	*	*	*	*	*	*	*	*	*	*	*	*	*	*	*	*	*	*	*	*	*	*	*	*	*	*	*	*
8F\L	.	4F/	2F\	za-	-pie-	Bo-	4B-/	2B-\	.	.	.	2f/	4f\	.	.	.	2dd\	4dd/	-kwi-	.	.	.	8f\L	.	8b-\L	.	8dd\L	.	2F\	.	(2B-\	.	(2d\	.	2FT\	.	2dd/	2b-\	.	8F/ 8FF/L	.	1f/	1f\	.	2dd/	2b-\	.	2bb-/	[1ff\	.	((2ddd'\	.
8F\	.	.	.	.	.	.	.	.	.	.	.	.	.	.	.	.	.	.	.	.	.	.	8d\	.	8ff\	.	8bb-\	.	.	.	.	.	.	.	.	.	.	.	.	8F/ 8FF/	.	.	.	.	.	.	.	.	.	.	.	.
8F\	.	4F/	.	-kwi-	.	-że	4B-/	.	.	.	.	.	4f\	.	.	.	.	4dd/	.	.	.	.	8b-\	.	8dd\	.	8ff\	.	.	.	.	.	.	.	.	.	.	.	.	8F/ 8FF/	.	.	.	.	.	.	.	.	.	.	.	.
8F\	.	.	.	.	.	.	.	.	.	.	.	.	.	.	.	.	.	.	.	.	.	.	8f\J	.	8b-\J	.	8dd\J	.	.	.	.	.	.	.	.	.	.	.	.	8F/ 8FF/	.	.	.	.	.	.	.	.	.	.	.	.
*	*	*Xcue	*	*	*	*	*Xcue	*	*	*	*	*	*Xcue	*	*	*	*	*Xcue	*	*	*	*	*	*	*	*	*	*	*	*	*	*	*	*	*	*	*	*	*	*	*	*	*	*	*	*	*	*	*	*	*	*
8F\	.	4F\yy	4F\	-tnie	-ki	du-	4e-\yy	4e-\	.	.	.	4f/	4f/yy	.	.	.	4cc\yy	4cc\	-tnie	.	.	.	8e-\L	.	8a/ 8f/L	.	8cc\L	.	4F\	.	4A\	.	4e-\	.	4F\	.	(>4cc/ 4e-/	2ryy	.	8F/ 8FF/	.	.	.	.	(4ee-/	4cc\	.	(4aa/	.	.	4ccc\	.
8F\	.	.	.	.	.	.	.	.	.	.	.	.	.	.	.	.	.	.	.	.	.	.	8e-\J	.	8a/ 8f/J	.	8cc\J	.	.	.	.	.	.	.	.	.	.	.	.	8F/ 8FF/	.	.	.	.	.	.	.	.	.	.	.	.
8F\	.	4F\yy	4F\	na	pu	-chu	4d\yy	4d\	.	.	.	4f/	4f/yy	.	.	.	4b-\yy	4b-\	na	.	.	.	8d\L	.	8b-/ 8f/L	.	8b-\L	.	4F\	.	4B-\)	.	4d\)	.	4F\	.	4b-/ 4d/	.	.	8F/ 8FF/	.	.	.	.	4dd/	4b-\	.	[4bb-/	.	.	[4bb-\)	.
8F\J	.	.	.	.	.	.	.	.	.	.	.	.	.	.	.	.	.	.	.	.	.	.	8d\J	.	8b-/ 8f/J	.	8b-\J	.	.	.	.	.	.	.	.	.	.	.	.	8F/ 8FF/J	.	.	.	.	.	.	.	.	.	.	.	.
*	*	*	*	*	*	*	*	*	*	*	*	*	*	*	*	*	*	*	*	*	*	*	*	*	*	*	*Xtremolo	*	*	*	*	*	*	*	*	*	*	*	*	*	*	*	*	*	*	*	*	*	*	*	*	*
*	*	*	*	*	*	*	*	*	*	*	*	*v	*v	*	*	*	*	*	*	*	*	*	*	*	*	*	*	*	*	*	*	*	*	*	*	*	*	*	*	*	*	*	*	*	*	*	*	*	*	*	*	*
*	*	*v	*v	*	*	*	*	*	*	*	*	*	*	*	*	*v	*v	*	*	*	*	*	*	*	*	*	*	*	*	*	*	*	*	*	*	*	*	*	*	*	*	*	*	*	*	*	*	*	*	*	*
=22	=22	=22	=22	=22	=22	=22	=22	=22	=22	=22	=22	=22	=22	=22	=22	=22	=22	=22	=22	=22	=22	=22	=22	=22	=22	=22	=22	=22	=22	=22	=22	=22	=22	=22	=22	=22	=22	=22	=22	=22	=22	=22	=22	=22	=22	=22	=22	=22	=22
8FF/L	.	(2..F\	zie-	kle-	świę-	(>2..e-/	(>2..c\	.	.	.	1f/	.	.	.	(4b-/	zie-	.	.	.	8e-\ 8c\L	.	8f/L	.	8b-'/L	.	(2..F\	.	(2..c\	.	(2..e-\	.	4F\	.	(4b-/)	2..c/	.	8F/ 8FF/L	.	[1f/	2..f\	.	2..ee-/	2..cc\	.	4bb-/]	1ff\]	.	4bb-\]	.
8FF/	.	.	.	.	.	.	.	.	.	.	.	.	.	.	.	.	.	.	.	8e-\ 8c\	.	8f/	.	8b-'/	.	.	.	.	.	.	.	.	.	.	.	.	8F/ 8FF/	.	.	.	.	.	.	.	.	.	.	.	.
8FF/	.	.	.	.	.	.	.	.	.	.	.	.	.	.	8a/L	.	.	.	.	8e-\ 8c\	.	8f/	.	(8a/	.	.	.	.	.	.	.	4r	.	8a/L	.	.	8F/ 8FF/	.	.	.	.	.	.	.	8aa/L	.	.	8aa\L	.
8FF/J	.	.	.	.	.	.	.	.	.	.	.	.	.	.	8g/J	.	.	.	.	8e-\ 8c\J	.	8f/J	.	8g/J	.	.	.	.	.	.	.	.	.	8g/J	.	.	8F/ 8FF/J	.	.	.	.	.	.	.	8gg/J	.	.	8gg\J	.
*Xtremolo	*	*	*	*	*	*	*	*	*	*	*	*	*	*	*	*	*	*	*	*Xtremolo	*	*Xtremolo	*	*	*	*	*	*	*	*	*	*	*	*	*	*	*Xtremolo	*	*	*	*	*	*	*	*	*	*	*	*
(4.FF/	.	.	.	.	.	.	.	.	.	.	.	.	.	.	4.a/	.	.	.	.	4.e-\ 4.c\	.	[2f/	.	4.a/	.	.	.	.	.	.	.	2r	.	4.a/	.	.	(>(>4.F/ 4.FF/	.	.	.	.	.	.	.	4.aa/	.	.	4.aa\	.
8BB-/)	.	8BB-/)	.	.	.	8d/)	8B-\)	.	.	.	.	.	.	.	8b-/)	.	.	.	.	8d\ 8B-\	.	.	.	8b-/	.	8BB-/)	.	8B-\)	.	8d\	.	.	.	8b-/)	8d/	.	8B-\ 8BB-\))	.	.	8B-\	.	8dd/	8b-\	.	8bb-/)	.	.	8bb-\	.
*	*	*	*	*	*	*	*	*	*	*	*	*	*	*	*	*	*	*	*	*	*	*	*	*	*	*	*	*	*	*	*	*	*	*v	*v	*	*	*	*v	*v	*	*	*	*	*	*	*	*	*
=23	=23	=23	=23	=23	=23	=23	=23	=23	=23	=23	=23	=23	=23	=23	=23	=23	=23	=23	=23	=23	=23	=23	=23	=23	=23	=23	=23	=23	=23	=23	=23	=23	=23	=23	=23	=23	=23	=23	=23	=23	=23	=23	=23	=23	=23	=23	=23
!	!	!	!	!	!	!	!	!	!	!	!	!	!	!	!	!	!	!	!	!	!	!	!	!	!	!	!	!	!	!	!	!	!	!	!	!	!	!	!	!	!	!	!	!	!	!LO:TX:a:t=P:problem:"vi" niebieską kredką	!
4BB-/	.	4BB-/	-mi	-rzem.	-ty.	4d/	4B-\	.	.	.	4f/	.	.	.	4b-/	-mi.	.	.	.	4d\ 4B-\	.	4f/]	.	4b-/)	.	4BB-/	.	4B-\	.	4d\)	.	4BB-/	.	4b-/ 4d/	.	4B-\ 4BB-\	.	4f/] 4B-/	.	4dd/)	4b-\	.	4bb-/	4ff\	.	4bb-\)	.
4r	.	4r	.	.	.	4r	4ryy	.	.	.	4r	.	.	.	4r	.	.	.	.	4r	.	4r	.	4r	.	4r	.	4r	.	4r	.	4r	.	4r	.	4r	.	4r	.	4r	4r	.	4r	4ryy	.	4r	.
!	!	!	!	!	!	!	!	!	!	!	!	!	!	!	!	!	!	!	!	!	!	!	!	!	!	!	!	!	!	!	!	!	!	!	!	!	!	!	!	!	!	!	!	!	!	!LO:TX:a:t=P:problem:"vi" skreślone niebieską kredką	!
2r	.	2r	.	.	.	2r	2ryy	.	.	.	2r	.	.	.	2r	.	.	.	.	2r	.	2r	.	2r	.	2r	.	2r	.	2r	.	2r	.	2r	.	2r	.	2r	.	2b-^/	2b-\	.	2ff/	2dd^\	.	2r	.
*	*	*	*	*	*	*v	*v	*	*	*	*	*	*	*	*	*	*	*	*	*	*	*	*	*	*	*	*	*	*	*	*	*	*	*	*	*	*	*	*	*v	*v	*	*	*	*	*	*
!!LO:PB:g=original
=24	=24	=24	=24	=24	=24	=24	=24	=24	=24	=24	=24	=24	=24	=24	=24	=24	=24	=24	=24	=24	=24	=24	=24	=24	=24	=24	=24	=24	=24	=24	=24	=24	=24	=24	=24	=24	=24	=24	=24	=24	=24	=24	=24	=24	=24
!	!	!	!	!	!	!	!	!	!	!	!	!	!	!	!	!	!	!	!	!	!	!	!	!	!	!	!	!	!	!	!	!	!	!	!	!	!	!	!	!	!	!	!	!LO:SIC:v:t=UWAGA COŚ TU JEST NIE TAK - takty 24-29	!
1r	.	1r	.	.	.	1r	.	.	.	1r	.	.	.	1r	.	.	.	.	1r	.	1r	.	1r	.	1r	.	1r	.	1r	.	1r	.	1r	.	1r	.	1r	.	4b-\	.	4ff/	2dd\	.	1ryy	.
.	.	.	.	.	.	.	.	.	.	.	.	.	.	.	.	.	.	.	.	.	.	.	.	.	.	.	.	.	.	.	.	.	.	.	.	.	.	.	4bX\	.	4gg/	.	.	.	.
.	.	.	.	.	.	.	.	.	.	.	.	.	.	.	.	.	.	.	.	.	.	.	.	.	.	.	.	.	.	.	.	.	.	.	.	.	.	.	4cc\	.	4ee-/	2cc\	.	.	.
.	.	.	.	.	.	.	.	.	.	.	.	.	.	.	.	.	.	.	.	.	.	.	.	.	.	.	.	.	.	.	.	.	.	.	.	.	.	.	4a\	.	4ff/	.	.	.	.
=25	=25	=25	=25	=25	=25	=25	=25	=25	=25	=25	=25	=25	=25	=25	=25	=25	=25	=25	=25	=25	=25	=25	=25	=25	=25	=25	=25	=25	=25	=25	=25	=25	=25	=25	=25	=25	=25	=25	=25	=25	=25	=25	=25	=25	=25
*	*	*	*	*	*	*	*	*	*	*	*	*	*	*	*	*	*	*	*	*	*	*	*	*	*	*	*	*	*	*	*	*	*^	*	*	*	*	*	*	*	*	*	*	*	*
2r	.	1r	.	.	.	1r	.	.	.	1r	.	.	.	1r	.	.	.	.	2r	.	2r	.	2r	.	2r	.	2r	.	2r	.	2r	.	2r	2ryy	.	2r	.	1r	.	(4b-\	.	4dd/	2b-\	.	1ryy	.
.	.	.	.	.	.	.	.	.	.	.	.	.	.	.	.	.	.	.	.	.	.	.	.	.	.	.	.	.	.	.	.	.	.	.	.	.	.	.	.	4g\	.	4ee-/	.	.	.	.
4r	.	.	.	.	.	.	.	.	.	.	.	.	.	.	.	.	.	.	4r	.	4r	.	4r	.	4r	.	4r	.	4r	.	4r	.	4r	4ryy	.	4r	.	.	.	(4e-/	.	4g/	2ryy	.	.	.
!	!LO:DY:b	!	!	!	!	!	!	!	!	!	!	!	!	!	!	!	!	!	!	!	!	!LO:DY:a	!	!	!	!	!	!	!	!	!	!	!	!	!	!	!	!	!	!	!	!	!	!	!	!
.	f	.	.	.	.	.	.	.	.	.	.	.	.	.	.	.	.	.	.	.	.	.	.	.	.	.	.	.	.	.	.	.	.	.	.	.	.	.	.	.	.	.	.	.	.	.
4F\	.	.	.	.	.	.	.	.	.	.	.	.	.	.	.	.	.	.	4f\ 4A\	f	4e-/ 4c/	f	4a/	.	4F\	.	4c\	.	4e-\	.	4F\	.	4f/	4f\	.	4F/ 4FF/	.	.	.	4e-/))	.	4a/	.	.	.	.
*	*	*	*	*	*	*	*	*	*	*	*	*	*	*	*	*	*	*	*	*	*	*	*	*	*	*	*	*	*	*	*	*	*v	*v	*	*	*	*	*	*	*	*v	*v	*	*	*
=26:|!	=26:|!	=26:|!	=26:|!	=26:|!	=26:|!	=26:|!	=26:|!	=26:|!	=26:|!	=26:|!	=26:|!	=26:|!	=26:|!	=26:|!	=26:|!	=26:|!	=26:|!	=26:|!	=26:|!	=26:|!	=26:|!	=26:|!	=26:|!	=26:|!	=26:|!	=26:|!	=26:|!	=26:|!	=26:|!	=26:|!	=26:|!	=26:|!	=26:|!	=26:|!	=26:|!	=26:|!	=26:|!	=26:|!	=26:|!	=26:|!	=26:|!	=26:|!	=26:|!	=26:|!
(4B-\	.	1r	.	.	.	1r	.	.	.	1r	.	.	.	1r	.	.	.	.	4f\ 4B-\	.	(4d/	.	(4b-\	.	4BB-/	.	4B-\	.	4d\	.	4BB-/	.	4f/ 4B-/	.	4F/ 4BB-/	.	1r	.	4d/	.	4b-/	.	1r	.
8A\L	.	.	.	.	.	.	.	.	.	.	.	.	.	.	.	.	.	.	8A/L	.	8a\L	.	8a\L	.	4r	.	4r	.	4r	.	4r	.	4r	.	4r	.	.	.	4r	.	4r	.	.	.
8B-\J	.	.	.	.	.	.	.	.	.	.	.	.	.	.	.	.	.	.	8B-/J	.	8b-\J	.	8b-\J	.	.	.	.	.	.	.	.	.	.	.	.	.	.	.	.	.	.	.	.	.
4F\	.	.	.	.	.	.	.	.	.	.	.	.	.	.	.	.	.	.	4f\	.	4dd\	.	4dd\	.	2r	.	2r	.	2r	.	2r	.	2r	.	2r	.	.	.	2r	.	2r	.	.	.
4D\	.	.	.	.	.	.	.	.	.	.	.	.	.	.	.	.	.	.	4d\	.	4f/	.	4ff\)	.	.	.	.	.	.	.	.	.	.	.	.	.	.	.	.	.	.	.	.	.
=27	=27	=27	=27	=27	=27	=27	=27	=27	=27	=27	=27	=27	=27	=27	=27	=27	=27	=27	=27	=27	=27	=27	=27	=27	=27	=27	=27	=27	=27	=27	=27	=27	=27	=27	=27	=27	=27	=27	=27	=27	=27	=27	=27	=27
*	*	*	*	*	*	*	*	*	*	*	*	*	*	*	*	*	*	*	*	*	*	*	*	*	*	*	*	*	*	*	*	*	*	*	*	*	*^	*	*	*	*	*	*	*
4BB-/)	.	1r	.	.	.	1r	.	.	.	1r	.	.	.	1r	.	.	.	.	4B-/	.	4b-/)	.	4bb-\	.	1r	.	1r	.	1r	.	1r	.	2r	.	2r	.	2r	2ryy	.	2r	.	2r	.	1r	.
4r	.	.	.	.	.	.	.	.	.	.	.	.	.	.	.	.	.	.	4r	.	4r	.	4r	.	.	.	.	.	.	.	.	.	.	.	.	.	.	.	.	.	.	.	.	.	.
!	!	!	!	!	!	!	!	!	!	!	!	!	!	!	!	!	!	!	!	!	!	!	!	!	!	!	!	!	!	!	!	!	!LO:N:n=1:vis=2.	!	!	!	!	!	!	!	!	!	!	!	!
2BB-/	.	.	.	.	.	.	.	.	.	.	.	.	.	.	.	.	.	.	2B-/	.	2B-/	.	2b-\	.	.	.	.	.	.	.	.	.	2b-/ 2B-/	.	2B-\ 2BB-\	.	2B-/	2B-\	.	2b-\	.	2b-\	.	.	.
*	*	*	*	*	*	*	*	*	*	*	*	*	*	*	*	*	*	*	*	*	*	*	*	*	*	*	*	*	*	*	*	*	*	*	*	*	*v	*v	*	*	*	*	*	*	*
=28	=28	=28	=28	=28	=28	=28	=28	=28	=28	=28	=28	=28	=28	=28	=28	=28	=28	=28	=28	=28	=28	=28	=28	=28	=28	=28	=28	=28	=28	=28	=28	=28	=28	=28	=28	=28	=28	=28	=28	=28	=28	=28	=28	=28
!	!	!	!	!	!	!	!	!	!	!	!	!	!	!	!	!	!	!	!	!	!	!	!	!	!	!	!	!LO:DY:rj:a	!	!	!	!	!	!	!	!	!	!	!	!	!	!	!	!
2.E-\	.	1E-\	.	.	.	1e-\	.	.	.	1g#X/	.	.	.	1b-\	a-	.	.	.	2.e-\	.	2.g/ 2.B-/	.	2.b-/ 2.e-/	.	2.E-\	.	2.e-\	f	2.g\	.	1r	.	2.b-/ 2.B-/	.	2.e-\ 2.E-\	.	2.g\ 2.e-\	.	2.b-\	.	2.b-\	.	1ryy	.
4E-\	.	.	.	.	.	.	.	.	.	.	.	.	.	.	.	.	.	.	4e-\	.	4g/ 4B-/	.	4b-/ 4e-/	.	4E-\	.	4e-\	.	4g\	.	.	.	4b-/ 4B-/	.	4e-\ 4E-\	.	4g\ 4e-\	.	4b-\	.	4b-\	.	.	.
=29	=29	=29	=29	=29	=29	=29	=29	=29	=29	=29	=29	=29	=29	=29	=29	=29	=29	=29	=29	=29	=29	=29	=29	=29	=29	=29	=29	=29	=29	=29	=29	=29	=29	=29	=29	=29	=29	=29	=29	=29	=29	=29	=29	=29
*	*	*	*	*	*	*	*	*	*	*	*	*	*	*	*	*	*	*	*	*	*	*	*	*	*	*	*	*	*	*	*tremolo	*	*	*	*	*	*	*	*	*	*	*	*	*
1BB-/;	.	1B-\ 1BB-\;	.	.	.	1d\;	.	.	.	1f/;	.	.	.	1b-\;	-men	.	.	.	1f\ 1B-\	.	1f/ 1B-/;	.	1b-/ 1d/;	.	1BB-/;	.	1d\;	.	1f\;	.	32BB-/LLL	.	1b-/ 1B-/;	.	1d\ 1BB-\	.	1f/ 1B-/;	.	1b-\;	.	1b-\;	.	1ryy	.
.	.	.	.	.	.	.	.	.	.	.	.	.	.	.	.	.	.	.	.	.	.	.	.	.	.	.	.	.	.	.	32BB-/	.	.	.	.	.	.	.	.	.	.	.	.	.
.	.	.	.	.	.	.	.	.	.	.	.	.	.	.	.	.	.	.	.	.	.	.	.	.	.	.	.	.	.	.	32BB-/	.	.	.	.	.	.	.	.	.	.	.	.	.
.	.	.	.	.	.	.	.	.	.	.	.	.	.	.	.	.	.	.	.	.	.	.	.	.	.	.	.	.	.	.	32BB-/	.	.	.	.	.	.	.	.	.	.	.	.	.
.	.	.	.	.	.	.	.	.	.	.	.	.	.	.	.	.	.	.	.	.	.	.	.	.	.	.	.	.	.	.	32BB-/	.	.	.	.	.	.	.	.	.	.	.	.	.
.	.	.	.	.	.	.	.	.	.	.	.	.	.	.	.	.	.	.	.	.	.	.	.	.	.	.	.	.	.	.	32BB-/	.	.	.	.	.	.	.	.	.	.	.	.	.
.	.	.	.	.	.	.	.	.	.	.	.	.	.	.	.	.	.	.	.	.	.	.	.	.	.	.	.	.	.	.	32BB-/	.	.	.	.	.	.	.	.	.	.	.	.	.
.	.	.	.	.	.	.	.	.	.	.	.	.	.	.	.	.	.	.	.	.	.	.	.	.	.	.	.	.	.	.	32BB-/	.	.	.	.	.	.	.	.	.	.	.	.	.
.	.	.	.	.	.	.	.	.	.	.	.	.	.	.	.	.	.	.	.	.	.	.	.	.	.	.	.	.	.	.	32BB-/	.	.	.	.	.	.	.	.	.	.	.	.	.
.	.	.	.	.	.	.	.	.	.	.	.	.	.	.	.	.	.	.	.	.	.	.	.	.	.	.	.	.	.	.	32BB-/	.	.	.	.	.	.	.	.	.	.	.	.	.
.	.	.	.	.	.	.	.	.	.	.	.	.	.	.	.	.	.	.	.	.	.	.	.	.	.	.	.	.	.	.	32BB-/	.	.	.	.	.	.	.	.	.	.	.	.	.
.	.	.	.	.	.	.	.	.	.	.	.	.	.	.	.	.	.	.	.	.	.	.	.	.	.	.	.	.	.	.	32BB-/	.	.	.	.	.	.	.	.	.	.	.	.	.
.	.	.	.	.	.	.	.	.	.	.	.	.	.	.	.	.	.	.	.	.	.	.	.	.	.	.	.	.	.	.	32BB-/	.	.	.	.	.	.	.	.	.	.	.	.	.
.	.	.	.	.	.	.	.	.	.	.	.	.	.	.	.	.	.	.	.	.	.	.	.	.	.	.	.	.	.	.	32BB-/	.	.	.	.	.	.	.	.	.	.	.	.	.
.	.	.	.	.	.	.	.	.	.	.	.	.	.	.	.	.	.	.	.	.	.	.	.	.	.	.	.	.	.	.	32BB-/	.	.	.	.	.	.	.	.	.	.	.	.	.
.	.	.	.	.	.	.	.	.	.	.	.	.	.	.	.	.	.	.	.	.	.	.	.	.	.	.	.	.	.	.	32BB-/	.	.	.	.	.	.	.	.	.	.	.	.	.
.	.	.	.	.	.	.	.	.	.	.	.	.	.	.	.	.	.	.	.	.	.	.	.	.	.	.	.	.	.	.	32BB-/	.	.	.	.	.	.	.	.	.	.	.	.	.
.	.	.	.	.	.	.	.	.	.	.	.	.	.	.	.	.	.	.	.	.	.	.	.	.	.	.	.	.	.	.	32BB-/	.	.	.	.	.	.	.	.	.	.	.	.	.
.	.	.	.	.	.	.	.	.	.	.	.	.	.	.	.	.	.	.	.	.	.	.	.	.	.	.	.	.	.	.	32BB-/	.	.	.	.	.	.	.	.	.	.	.	.	.
.	.	.	.	.	.	.	.	.	.	.	.	.	.	.	.	.	.	.	.	.	.	.	.	.	.	.	.	.	.	.	32BB-/	.	.	.	.	.	.	.	.	.	.	.	.	.
.	.	.	.	.	.	.	.	.	.	.	.	.	.	.	.	.	.	.	.	.	.	.	.	.	.	.	.	.	.	.	32BB-/	.	.	.	.	.	.	.	.	.	.	.	.	.
.	.	.	.	.	.	.	.	.	.	.	.	.	.	.	.	.	.	.	.	.	.	.	.	.	.	.	.	.	.	.	32BB-/	.	.	.	.	.	.	.	.	.	.	.	.	.
.	.	.	.	.	.	.	.	.	.	.	.	.	.	.	.	.	.	.	.	.	.	.	.	.	.	.	.	.	.	.	32BB-/	.	.	.	.	.	.	.	.	.	.	.	.	.
.	.	.	.	.	.	.	.	.	.	.	.	.	.	.	.	.	.	.	.	.	.	.	.	.	.	.	.	.	.	.	32BB-/JJJ	.	.	.	.	.	.	.	.	.	.	.	.	.
*	*	*	*	*	*	*	*	*	*	*	*	*	*	*	*	*	*	*	*	*	*	*	*	*	*	*	*	*	*	*	*Xtremolo	*	*	*	*	*	*	*	*	*	*	*	*	*
.	.	.	.	.	.	.	.	.	.	.	.	.	.	.	.	.	.	.	.	.	.	.	.	.	.	.	.	.	.	.	4BB-;/	.	.	.	.	.	.	.	.	.	.	.	.	.
!!LO:PB:g=original
=30||	=30||	=30||	=30||	=30||	=30||	=30||	=30||	=30||	=30||	=30||	=30||	=30||	=30||	=30||	=30||	=30||	=30||	=30||	=30||	=30||	=30||	=30||	=30||	=30||	=30||	=30||	=30||	=30||	=30||	=30||	=30||	=30||	=30||	=30||	=30||	=30||	=30||	=30||	=30||	=30||	=30||	=30||	=30||	=30||
*	*	*	*	*	*	*^	*	*	*	*	*	*	*	*	*	*	*	*	*^	*	*	*	*	*	*	*	*	*	*	*	*	*	*	*	*	*	*	*	*^	*	*	*	*	*
!	!	!	!	!	!	!	!	!	!	!	!	!	!	!	!	!	!	!	!	!	!	!	!	!	!	!	!	!	!	!	!	!	!	!	!	!	!	!	!	!	!	!	!	!	!	!LO:TX:a:t=de	!
4BB-/	.	4BB-/	.	.	.	4d/	4B-\	.	.	.	4f/	.	.	.	4b-\	mi	.	.	.	4d/	4B-\	.	4f/	.	4b-/	.	4BB-/	.	4B-\	.	4d\	.	4BB-/	.	4b-/ 4d/	.	4B-\ 4BB-\	.	4f/ 4B-/	.	4dd/	4b-\	.	4bb-\ 4ff\	.	4bb-\	.
4r	.	4r	.	.	.	4r	4ryy	.	.	.	4r	.	.	.	4r	.	.	.	.	4r	4ryy	.	4r	.	4r	.	4r	.	(4f\	.	(4a-X\	.	4r	.	4r	.	(4A-X\ 4F\	.	(4a-\ 4f\	.	4r	4ryy	.	4r	.	4r	.
2r	.	2r	.	.	.	2r	2ryy	.	.	.	2r	.	.	.	4r	.	.	.	.	2r	2ryy	.	2r	.	2r	.	2r	.	4e-\	.	4g\	.	2r	.	2r	.	4G\ 4E-\	.	4g\ 4e-\	.	2r	2ryy	.	2r	.	2r	.
!	!	!	!	!	!	!	!	!	!	!	!	!	!	!	!LO:TX:a:t=Solo	!	!	!	!	!	!	!	!	!	!	!	!	!	!	!	!	!	!	!	!	!	!	!	!	!	!	!	!	!	!	!	!
.	.	.	.	.	.	.	.	.	.	.	.	.	.	.	4b-\	Ty	.	.	.	.	.	.	.	.	.	.	.	.	4d\)	.	4f\)	.	.	.	.	.	4F\ 4BB-\)	.	4f/ 4B-/)	.	.	.	.	.	.	.	.
*	*	*	*	*	*	*v	*v	*	*	*	*	*	*	*	*	*	*	*	*	*v	*v	*	*	*	*	*	*	*	*	*	*	*	*	*	*	*	*	*	*	*	*v	*v	*	*	*	*	*
=31	=31	=31	=31	=31	=31	=31	=31	=31	=31	=31	=31	=31	=31	=31	=31	=31	=31	=31	=31	=31	=31	=31	=31	=31	=31	=31	=31	=31	=31	=31	=31	=31	=31	=31	=31	=31	=31	=31	=31	=31	=31	=31	=31	=31
!	!LO:DY:b	!	!	!	!	!	!	!	!	!	!	!	!	!	!	!	!	!	!	!	!	!	!	!	!	!	!	!	!	!	!	!	!	!	!	!	!	!	!	!	!	!	!	!
4E-\	p	1r	.	.	.	1r	.	.	.	1r	.	.	.	4.ee-\	Bo-	.	.	.	8r	.	8r	.	8r	.	4E-\	.	4G/	.	4e-\	.	1r	.	1r	.	4E-\	.	4e-/ 4G/	.	1r	.	1r	.	1r	.
.	.	.	.	.	.	.	.	.	.	.	.	.	.	.	.	.	.	.	8B-/L	.	8e-/L	.	8g/L	.	.	.	.	.	.	.	.	.	.	.	.	.	.	.	.	.	.	.	.	.
4r	.	.	.	.	.	.	.	.	.	.	.	.	.	.	.	.	.	.	8B-/	.	8e-/	.	8g/	.	4r	.	4r	.	4r	.	.	.	.	.	4r	.	4r	.	.	.	.	.	.	.
.	.	.	.	.	.	.	.	.	.	.	.	.	.	8ee-\	-że	.	.	.	8B-/J	.	8e-/J	.	8g/J	.	.	.	.	.	.	.	.	.	.	.	.	.	.	.	.	.	.	.	.	.
8E-\	.	.	.	.	.	.	.	.	.	.	.	.	.	4g/	Sy-	.	.	.	8r	.	8r	.	8r	.	2r	.	2r	.	2r	.	.	.	.	.	2r	.	2r	.	.	.	.	.	.	.
8r	.	.	.	.	.	.	.	.	.	.	.	.	.	.	.	.	.	.	8B-/	.	8e-/	.	8g/	.	.	.	.	.	.	.	.	.	.	.	.	.	.	.	.	.	.	.	.	.
8E-\	.	.	.	.	.	.	.	.	.	.	.	.	.	4cc\	-nu	.	.	.	8r	.	8r	.	8r	.	.	.	.	.	.	.	.	.	.	.	.	.	.	.	.	.	.	.	.	.
8r	.	.	.	.	.	.	.	.	.	.	.	.	.	.	.	.	.	.	8c/	.	8e-/	.	8a-X/	.	.	.	.	.	.	.	.	.	.	.	.	.	.	.	.	.	.	.	.	.
=32	=32	=32	=32	=32	=32	=32	=32	=32	=32	=32	=32	=32	=32	=32	=32	=32	=32	=32	=32	=32	=32	=32	=32	=32	=32	=32	=32	=32	=32	=32	=32	=32	=32	=32	=32	=32	=32	=32	=32	=32	=32	=32	=32	=32
4E-\	.	1r	.	.	.	1r	.	.	.	2r	.	.	.	2b-\	Bo-	.	.	.	8r	.	8r	.	8r	.	1r	.	1r	.	1r	.	1r	.	1r	.	2r	.	2r	.	1r	.	1r	.	1r	.
.	.	.	.	.	.	.	.	.	.	.	.	.	.	.	.	.	.	.	8B-/L	.	8e-/L	.	8g/L	.	.	.	.	.	.	.	.	.	.	.	.	.	.	.	.	.	.	.	.	.
4r	.	.	.	.	.	.	.	.	.	.	.	.	.	.	.	.	.	.	8B-/	.	8e-/	.	8g/	.	.	.	.	.	.	.	.	.	.	.	.	.	.	.	.	.	.	.	.	.
.	.	.	.	.	.	.	.	.	.	.	.	.	.	.	.	.	.	.	8B-/J	.	8e-/J	.	8g/J	.	.	.	.	.	.	.	.	.	.	.	.	.	.	.	.	.	.	.	.	.
4E-\	.	.	.	.	.	.	.	.	.	4r	.	.	.	4g/	-ga	.	.	.	4B-/	.	4e-/	.	4g/	.	.	.	.	.	.	.	.	.	.	.	4r	.	4r	.	.	.	.	.	.	.
!	!	!	!	!	!	!	!	!	!	!LO:TX:a:t=Solo	!	!	!	!	!	!	!	!	!	!	!	!	!	!	!	!	!	!	!	!	!	!	!	!	!	!	!	!	!	!	!	!	!	!
4r	.	.	.	.	.	.	.	.	.	(8g/L	.	.	.	(8b-/L	Coś	.	.	.	4r	.	4r	.	4r	.	.	.	.	.	.	.	.	.	.	.	(8B-\L 8G\	.	(8b-\L 8g\	.	.	.	.	.	.	.
.	.	.	.	.	.	.	.	.	.	8e-/J)	.	.	.	8g/J)	.	.	.	.	.	.	.	.	.	.	.	.	.	.	.	.	.	.	.	.	8G\J 8E-\)	.	8g\J 8e-\)	.	.	.	.	.	.	.
=33	=33	=33	=33	=33	=33	=33	=33	=33	=33	=33	=33	=33	=33	=33	=33	=33	=33	=33	=33	=33	=33	=33	=33	=33	=33	=33	=33	=33	=33	=33	=33	=33	=33	=33	=33	=33	=33	=33	=33	=33	=33	=33	=33	=33
1r	.	1r	.	.	.	1r	.	.	.	2G/	.	.	.	2e-/	no-	.	.	.	1r	.	1r	.	1r	.	1r	.	1r	.	1r	.	1r	.	1r	.	2E-/ 2GG/	.	2e-/ 2G/	.	1r	.	1r	.	1r	.
.	.	.	.	.	.	.	.	.	.	4.B-/	.	.	.	4.f/	-wem	.	.	.	.	.	.	.	.	.	.	.	.	.	.	.	.	.	.	.	4.F\ 4.BB-\	.	4.f\ 4.B-\	.	.	.	.	.	.	.
.	.	.	.	.	.	.	.	.	.	8B-/	.	.	.	8f/	przy-	.	.	.	.	.	.	.	.	.	.	.	.	.	.	.	.	.	.	.	8F\ 8BB-\	.	8f\ 8B-\	.	.	.	.	.	.	.
=34	=34	=34	=34	=34	=34	=34	=34	=34	=34	=34	=34	=34	=34	=34	=34	=34	=34	=34	=34	=34	=34	=34	=34	=34	=34	=34	=34	=34	=34	=34	=34	=34	=34	=34	=34	=34	=34	=34	=34	=34	=34	=34	=34	=34
*	*	*	*	*	*	*	*	*	*	*	*	*	*	*	*	*	*	*	*	*	*	*	*	*	*	*	*	*	*	*	*	*	*	*	*^	*	*^	*	*^	*	*	*	*	*
2r	.	1r	.	.	.	1r	.	.	.	2e-/	.	.	.	2g/	-mie-	.	.	.	2r	.	2r	.	2r	.	1r	.	1r	.	1r	.	1r	.	1r	.	2.G/	2.E-\	.	2.g/	2.e-\	.	8r	1re	.	1r	.	8r	.
.	.	.	.	.	.	.	.	.	.	.	.	.	.	.	.	.	.	.	.	.	.	.	.	.	.	.	.	.	.	.	.	.	.	.	.	.	.	.	.	.	(8gg/L	.	.	.	.	(8ggg\L	.
.	.	.	.	.	.	.	.	.	.	.	.	.	.	.	.	.	.	.	.	.	.	.	.	.	.	.	.	.	.	.	.	.	.	.	.	.	.	.	.	.	8ee-/	.	.	.	.	8eee-\	.
.	.	.	.	.	.	.	.	.	.	.	.	.	.	.	.	.	.	.	.	.	.	.	.	.	.	.	.	.	.	.	.	.	.	.	.	.	.	.	.	.	8b-/J	.	.	.	.	8bb-\J)	.
4r	.	.	.	.	.	.	.	.	.	4e-/	.	.	.	4g/	-rzem	.	.	.	4r	.	4r	.	4r	.	.	.	.	.	.	.	.	.	.	.	.	.	.	.	.	.	8g/L)	.	.	.	.	8gg\L	.
.	.	.	.	.	.	.	.	.	.	.	.	.	.	.	.	.	.	.	.	.	.	.	.	.	.	.	.	.	.	.	.	.	.	.	.	.	.	.	.	.	(8ee-/	.	.	.	.	(8eee-\	.
8E-\	.	.	.	.	.	.	.	.	.	4r	.	.	.	4r	.	.	.	.	8r	.	8r	.	8r	.	.	.	.	.	.	.	.	.	.	.	4r	4ryy	.	4r	4ryy	.	8b-/	.	.	.	.	8bb-\	.
8r	.	.	.	.	.	.	.	.	.	.	.	.	.	.	.	.	.	.	8B-/	.	8e-/	.	8g/	.	.	.	.	.	.	.	.	.	.	.	.	.	.	.	.	.	8g/J)	.	.	.	.	8gg\J)	.
*	*	*	*	*	*	*	*	*	*	*	*	*	*	*	*	*	*	*	*	*	*	*	*	*	*	*	*	*	*	*	*	*	*	*	*v	*v	*	*	*	*	*v	*v	*	*	*	*	*
*	*	*	*	*	*	*	*	*	*	*	*	*	*	*	*	*	*	*	*	*	*	*	*	*	*	*	*	*	*	*	*	*	*	*	*	*	*v	*v	*	*	*	*	*	*	*
=35	=35	=35	=35	=35	=35	=35	=35	=35	=35	=35	=35	=35	=35	=35	=35	=35	=35	=35	=35	=35	=35	=35	=35	=35	=35	=35	=35	=35	=35	=35	=35	=35	=35	=35	=35	=35	=35	=35	=35	=35	=35	=35	=35	=35
!	!	!LO:TX:a:t=solo	!	!	!	!LO:TX:a:t=solo	!	!	!	!LO:TX:a:t=Solo	!	!	!	!	!	!	!	!	!	!	!	!	!	!	!	!	!	!	!	!	!	!	!	!	!	!	!	!	!	!	!	!	!	!
4D\	.	4D\	.	.	.	4B-\	.	.	.	4f/	.	.	.	4a-X/	Dzie-	.	.	.	8r	.	8r	.	8r	.	1r	.	1r	.	1r	.	1r	.	1r	.	1r	.	1r	.	1r	.	1r	.	1r	.
.	.	.	.	.	.	.	.	.	.	.	.	.	.	.	.	.	.	.	8B-/L	.	8f/L	.	8a-X/L	.	.	.	.	.	.	.	.	.	.	.	.	.	.	.	.	.	.	.	.	.
4r	.	4D\	.	.	.	4B-\	.	.	.	4f/	.	.	.	4a-/	-ci	.	.	.	8B-/	.	8f/	.	8a-/	.	.	.	.	.	.	.	.	.	.	.	.	.	.	.	.	.	.	.	.	.
.	.	.	.	.	.	.	.	.	.	.	.	.	.	.	.	.	.	.	8B-/J	.	8f/J	.	8a-/J	.	.	.	.	.	.	.	.	.	.	.	.	.	.	.	.	.	.	.	.	.
4E-\	.	4E-\	.	.	.	4B-\	.	.	.	4e-/	.	.	.	4g/	z Oj-	.	.	.	8r	.	8r	.	8r	.	.	.	.	.	.	.	.	.	.	.	.	.	.	.	.	.	.	.	.	.
.	.	.	.	.	.	.	.	.	.	.	.	.	.	.	.	.	.	.	8B-/L	.	8e-/L	.	8g/L	.	.	.	.	.	.	.	.	.	.	.	.	.	.	.	.	.	.	.	.	.
4r	.	8E-\	.	.	.	8B-\	.	.	.	8e-/	.	.	.	8g/	-cem	.	.	.	8B-/	.	8e-/	.	8g/	.	.	.	.	.	.	.	.	.	.	.	.	.	.	.	.	.	.	.	.	.
.	.	8E-\	.	.	.	8B-\	.	.	.	8e-/	.	.	.	8g/	i	.	.	.	8B-/J	.	8e-/J	.	8g/J	.	.	.	.	.	.	.	.	.	.	.	.	.	.	.	.	.	.	.	.	.
!!LO:PB:g=original
=36	=36	=36	=36	=36	=36	=36	=36	=36	=36	=36	=36	=36	=36	=36	=36	=36	=36	=36	=36	=36	=36	=36	=36	=36	=36	=36	=36	=36	=36	=36	=36	=36	=36	=36	=36	=36	=36	=36	=36	=36	=36	=36	=36	=36
4A-X\	.	2A-X\	.	.	.	2c\	.	.	.	2e-/	.	.	.	2cc\	zie-	.	.	.	8r	.	8r	.	8rg	.	1r	.	1r	.	1r	.	1r	.	1r	.	1r	.	1r	.	1r	.	1r	.	1r	.
.	.	.	.	.	.	.	.	.	.	.	.	.	.	.	.	.	.	.	8c\L	.	8e-/L	.	8cc\L 8a-X\	.	.	.	.	.	.	.	.	.	.	.	.	.	.	.	.	.	.	.	.	.
4r	.	.	.	.	.	.	.	.	.	.	.	.	.	.	.	.	.	.	8c\	.	8e-/	.	8cc\ 8a-\	.	.	.	.	.	.	.	.	.	.	.	.	.	.	.	.	.	.	.	.	.
.	.	.	.	.	.	.	.	.	.	.	.	.	.	.	.	.	.	.	8c\J	.	8e-/J	.	8cc\J 8a-\	.	.	.	.	.	.	.	.	.	.	.	.	.	.	.	.	.	.	.	.	.
8G\	.	4G\	.	.	.	4e-\	.	.	.	4e-/	.	.	.	4b-\	-mię	.	.	.	8r	.	8r	.	8r	.	.	.	.	.	.	.	.	.	.	.	.	.	.	.	.	.	.	.	.	.
8r	.	.	.	.	.	.	.	.	.	.	.	.	.	.	.	.	.	.	8e-\	.	8e-/	.	8b-\	.	.	.	.	.	.	.	.	.	.	.	.	.	.	.	.	.	.	.	.	.
8G\	.	4G\	.	.	.	4e-\	.	.	.	4e-/	.	.	.	4b-\	z nie-	.	.	.	8r	.	8r	.	8r	.	.	.	.	.	.	.	.	.	.	.	.	.	.	.	.	.	.	.	.	.
8r	.	.	.	.	.	.	.	.	.	.	.	.	.	.	.	.	.	.	8e-\	.	8e-/	.	8b-\	.	.	.	.	.	.	.	.	.	.	.	.	.	.	.	.	.	.	.	.	.
=37	=37	=37	=37	=37	=37	=37	=37	=37	=37	=37	=37	=37	=37	=37	=37	=37	=37	=37	=37	=37	=37	=37	=37	=37	=37	=37	=37	=37	=37	=37	=37	=37	=37	=37	=37	=37	=37	=37	=37	=37	=37	=37	=37	=37
8F\	.	4F\	.	.	.	4c\	.	.	.	4e-/	.	.	.	4b-\	-bio-	.	.	.	8r	.	8r	.	8r	.	1r	.	1r	.	1r	.	1r	.	1r	.	1r	.	1r	.	1r	.	1r	.	1r	.
8r	.	.	.	.	.	.	.	.	.	.	.	.	.	.	.	.	.	.	8c\	.	8e-/	.	8b-/	.	.	.	.	.	.	.	.	.	.	.	.	.	.	.	.	.	.	.	.	.
*rep	*	*	*	*	*	*	*	*	*	*	*	*	*	*	*	*	*	*	*rep	*	*rep	*	*	*	*	*	*	*	*	*	*	*	*	*	*	*	*	*	*	*	*	*	*	*
8F\	.	4F\	.	.	.	4c\	.	.	.	4e-/	.	.	.	4an/	-sy	.	.	.	8r	.	8r	.	8r	.	.	.	.	.	.	.	.	.	.	.	.	.	.	.	.	.	.	.	.	.
8r	.	.	.	.	.	.	.	.	.	.	.	.	.	.	.	.	.	.	8c\	.	8e-/	.	8an/	.	.	.	.	.	.	.	.	.	.	.	.	.	.	.	.	.	.	.	.	.
*Xrep	*	*	*	*	*	*	*	*	*	*	*	*	*	*	*	*	*	*	*Xrep	*	*	*	*	*	*	*	*	*	*	*	*	*	*	*	*	*	*	*	*	*	*	*	*	*
*rep	*	*	*	*	*	*	*	*	*	*	*	*	*	*	*	*	*	*	*rep	*	*	*	*	*	*	*	*	*	*	*	*	*	*	*	*	*	*	*	*	*	*	*	*	*
8F\	.	2F\	.	.	.	2c\	.	.	.	2e-/	.	.	.	4gg\	zje-	.	.	.	8r	.	8r	.	8r	.	.	.	.	.	.	.	.	.	.	.	.	.	.	.	.	.	.	.	.	.
8r	.	.	.	.	.	.	.	.	.	.	.	.	.	.	.	.	.	.	8c\	.	8e-/	.	8gg\	.	.	.	.	.	.	.	.	.	.	.	.	.	.	.	.	.	.	.	.	.
*Xrep	*	*	*	*	*	*	*	*	*	*	*	*	*	*	*	*	*	*	*Xrep	*	*	*	*	*	*	*	*	*	*	*	*	*	*	*	*	*	*	*	*	*	*	*	*	*
*rep	*	*	*	*	*	*	*	*	*	*	*	*	*	*	*	*	*	*	*rep	*	*	*	*	*	*	*	*	*	*	*	*	*	*	*	*	*	*	*	*	*	*	*	*	*
8F\	.	.	.	.	.	.	.	.	.	.	.	.	.	4ff\	.	.	.	.	8r	.	8r	.	8r	.	.	.	.	.	.	.	.	.	.	.	.	.	.	.	.	.	.	.	.	.
8r	.	.	.	.	.	.	.	.	.	.	.	.	.	.	.	.	.	.	8c\	.	8e-/	.	8ff\	.	.	.	.	.	.	.	.	.	.	.	.	.	.	.	.	.	.	.	.	.
*Xrep	*	*	*	*	*	*	*	*	*	*	*	*	*	*	*	*	*	*	*Xrep	*	*Xrep	*	*	*	*	*	*	*	*	*	*	*	*	*	*	*	*	*	*	*	*	*	*	*
=38	=38	=38	=38	=38	=38	=38	=38	=38	=38	=38	=38	=38	=38	=38	=38	=38	=38	=38	=38	=38	=38	=38	=38	=38	=38	=38	=38	=38	=38	=38	=38	=38	=38	=38	=38	=38	=38	=38	=38	=38	=38	=38	=38	=38
*	*	*	*	*	*	*	*	*	*	*	*	*	*	*	*	*	*	*	*	*	*	*	*	*	*	*	*	*	*	*	*	*	*	*	*^	*	*^	*	*^	*	*	*	*	*
!	!	!	!	!	!	!	!	!	!	!	!	!	!	!	!	!	!	!	!	!	!	!	!	!	!	!	!	!	!	!	!	!	!	!	!	!	!LO:HP:a	!	!	!LO:DY:rj	!	!	!	!	!	!	!
8G-X\	.	4G-X\	.	.	.	2c\	.	.	.	2e-/	.	.	.	2an/	-dno-	.	.	.	8r	.	8r	.	8r	.	1r	.	1r	.	1r	.	1r	.	1r	.	(2c/	4G-X\	>	(4g-X/	2e-\	p	8r	1re	.	1r	.	8r	.
8r	.	.	.	.	.	.	.	.	.	.	.	.	.	.	.	.	.	.	8c/L	.	8e-/L	.	8an/L	.	.	.	.	.	.	.	.	.	.	.	.	.	.	.	.	.	(8ee-/L	.	.	.	.	8eee-\L	.
8F\	.	4F\	.	.	.	.	.	.	.	.	.	.	.	.	.	.	.	.	8c/	.	8e-/	.	8a/	.	.	.	.	.	.	.	.	.	.	.	.	4F\	.	4f/)	.	.	8cc/	.	.	.	.	8ccc\	.
8r	.	.	.	.	.	.	.	.	.	.	.	.	.	.	.	.	.	.	8c/J	.	8e-/J	.	8a/J	.	.	.	.	.	.	.	.	.	.	.	.	.	.	.	.	.	8a/J)	.	.	.	.	8aan\J	.
4B-\	.	4B-\	.	.	.	4B-\	.	.	.	4d/	.	.	.	4b-/	-czył	.	.	.	8r	.	8r	.	8r	.	.	.	.	.	.	.	.	.	.	.	4d/)	4BB-/	]	4f/	4B-/	.	4b-/	.	.	.	.	4bb-\	.
.	.	.	.	.	.	.	.	.	.	.	.	.	.	.	.	.	.	.	8B-/	.	8d/	.	8b-/	.	.	.	.	.	.	.	.	.	.	.	.	.	.	.	.	.	.	.	.	.	.	.	.
4r	.	4r	.	.	.	4r	.	.	.	4r	.	.	.	4b-/	Ty	.	.	.	4r	.	4r	.	4b-/	.	.	.	.	.	.	.	.	.	.	.	4r	4rA	.	4r	4ryy	.	4r	.	.	.	.	4r	.
*	*	*	*	*	*	*	*	*	*	*	*	*	*	*	*	*	*	*	*	*	*	*	*	*	*	*	*	*	*	*	*	*	*	*	*v	*v	*	*	*	*	*v	*v	*	*	*	*	*
*	*	*	*	*	*	*	*	*	*	*	*	*	*	*	*	*	*	*	*	*	*	*	*	*	*	*	*	*	*	*	*	*	*	*	*	*	*v	*v	*	*	*	*	*	*	*
=39	=39	=39	=39	=39	=39	=39	=39	=39	=39	=39	=39	=39	=39	=39	=39	=39	=39	=39	=39	=39	=39	=39	=39	=39	=39	=39	=39	=39	=39	=39	=39	=39	=39	=39	=39	=39	=39	=39	=39	=39	=39	=39	=39	=39
1r	.	1r	.	.	.	2r	.	.	.	1r	.	.	.	4.cc-X\	któ-	.	.	.	2r	.	1r	.	(2cc-X\	.	1r	.	1r	.	1r	.	1r	.	1r	.	1r	.	1r	.	1r	.	1r	.	1r	.
.	.	.	.	.	.	.	.	.	.	.	.	.	.	8cc-\	-ryś	.	.	.	.	.	.	.	.	.	.	.	.	.	.	.	.	.	.	.	.	.	.	.	.	.	.	.	.	.
.	.	.	.	.	.	4r	.	.	.	.	.	.	.	4b-\	za	.	.	.	4r	.	.	.	4b-\)	.	.	.	.	.	.	.	.	.	.	.	.	.	.	.	.	.	.	.	.	.
.	.	.	.	.	.	(4B-\	lu-	.	.	.	.	.	.	4b-\	ród	.	.	.	4B-/	.	.	.	(4b-\	.	.	.	.	.	.	.	.	.	.	.	.	.	.	.	.	.	.	.	.	.
=40	=40	=40	=40	=40	=40	=40	=40	=40	=40	=40	=40	=40	=40	=40	=40	=40	=40	=40	=40	=40	=40	=40	=40	=40	=40	=40	=40	=40	=40	=40	=40	=40	=40	=40	=40	=40	=40	=40	=40	=40	=40	=40	=40	=40
1r	.	1r	.	.	.	2c-X\)	.	.	.	2r	.	.	.	(4b-/	lu-	.	.	.	(2c-X/	.	2r	.	4b-/	.	1r	.	1r	.	1r	.	1r	.	1r	.	1r	.	1r	.	1r	.	1r	.	1r	.
.	.	.	.	.	.	.	.	.	.	.	.	.	.	4a-X/)	.	.	.	.	.	.	.	.	(4a-X/)	.	.	.	.	.	.	.	.	.	.	.	.	.	.	.	.	.	.	.	.	.
.	.	.	.	.	.	4B-\	-dzki	.	.	4r	.	.	.	4g-X/	-dzki	.	.	.	4B-/)	.	4r	.	4g-X/)	.	.	.	.	.	.	.	.	.	.	.	.	.	.	.	.	.	.	.	.	.
.	.	.	.	.	.	4B-\	krew	.	.	4e-/	Krew	.	.	4g-/	krew	.	.	.	4B-/	.	4e-/	.	4g-/	.	.	.	.	.	.	.	.	.	.	.	.	.	.	.	.	.	.	.	.	.
=41	=41	=41	=41	=41	=41	=41	=41	=41	=41	=41	=41	=41	=41	=41	=41	=41	=41	=41	=41	=41	=41	=41	=41	=41	=41	=41	=41	=41	=41	=41	=41	=41	=41	=41	=41	=41	=41	=41	=41	=41	=41	=41	=41	=41
*	*	*	*	*	*	*	*	*	*	*	*	*	*	*	*	*	*	*	*	*	*	*	*	*	*	*	*	*	*	*	*	*	*	*	*	*	*^	*	*	*	*	*	*	*
*	*	*	*	*	*	*	*	*	*	*	*	*	*	*	*	*	*	*	*	*	*	*	*	*	*	*	*	*	*	*	*	*	*ITrd0c0	*	*	*	*	*	*	*	*	*	*	*	*
!	!	!	!	!	!	!	!	!	!	!	!	!	!	!	!	!	!	!	!	!	!	!	!	!	!	!	!	!	!	!	!	!	!LO:TX:a:t=in C	!	!	!	!	!	!	!	!	!	!	!	!
2r	.	2r	.	.	.	2c-X\	swo-	.	.	2e-/	swo-	.	.	2a-X/	swo-	.	.	.	(>2c-X/	.	[2e-/	.	(>2a-X/	.	1r	.	1r	.	1r	.	1r	.	2r	.	2r	.	2r	2ryy	.	1r	.	2r	.	1r	.
4r	.	4r	.	.	.	4c-\	-ię	.	.	4e-/	-ię	.	.	4g-X/	-ię	.	.	.	4B-/)	.	4e-/]	.	4g-X/)	.	.	.	.	.	.	.	.	.	4r	.	4r	.	4r	4ryy	.	.	.	4r	.	.	.
4C-X/	.	4c-X\	wy-	.	.	4e-\	wy	.	.	4e-/	wy	.	.	4a-/	wy-	.	.	.	4e-\	.	4e-/	.	4a-/	.	.	.	.	.	.	.	.	.	4a-X/ 4e-X/	.	4c-X\ 4C-X\	>]	4e-/	4e-\	.	.	.	4aa-X\ 4ee-^<\	.	.	.
*	*	*	*	*	*	*	*	*	*	*	*	*	*	*	*	*	*	*	*	*	*	*	*	*	*	*	*	*	*	*	*	*	*	*	*	*	*v	*v	*	*	*	*	*	*	*
!!LO:PB:g=original
=42	=42	=42	=42	=42	=42	=42	=42	=42	=42	=42	=42	=42	=42	=42	=42	=42	=42	=42	=42	=42	=42	=42	=42	=42	=42	=42	=42	=42	=42	=42	=42	=42	=42	=42	=42	=42	=42	=42	=42	=42	=42	=42	=42	=42
*	*	*	*	*	*	*	*	*	*	*	*	*	*	*	*	*	*	*	*	*	*	*	*	*	*	*	*	*	*	*	*	*	*^	*	*	*	*	*	*	*	*^	*	*	*
2.BB-/	.	2B-\	-to-	.	.	(4e-\	.	.	.	2f/	.	.	.	2b-\	-to-	.	.	.	2.f\ 2.B-\	.	(4e-/	.	2.b-\	.	1r	.	1r	.	1r	.	2BB-T</	.	2.b-/	(>4e-\	.	2.B-\ 2.BB-\	.	2.f/ 2.B-/	.	2r	.	[2bb-/	4ee-\	.	1r	.
.	.	.	.	.	.	8d\L	.	.	.	.	.	.	.	.	.	.	.	.	.	.	8d/L	.	.	.	.	.	.	.	.	.	.	.	.	8d\L	.	.	.	.	.	.	.	.	8dd\L	.	.	.
.	.	.	.	.	.	8c\J)	.	.	.	.	.	.	.	.	.	.	.	.	.	.	8c/J)	.	.	.	.	.	.	.	.	.	.	.	.	8c\J	.	.	.	.	.	.	.	.	8cc\J	.	.	.
.	.	4BB-/	-czył	.	.	4d\	.	.	.	4f/	.	.	.	4b-\	-czył	.	.	.	.	.	4d/	.	.	.	.	.	.	.	.	.	4BB-/	.	.	4d\)	.	.	.	.	.	4r	.	4bb-/]	4dd\	.	.	.
4B-\	.	4B-\	Nas	.	.	4d\	.	.	.	4f/	.	.	.	4b-\	Nas	.	.	.	4f\ 4B-\	.	4d/	.	4b-\	.	.	.	.	.	.	.	4r	.	4r	4r	.	4d\ 4B-\	p	4r	.	4b-/ 4f/	p	4r	4r	.	.	.
*	*	*	*	*	*	*	*	*	*	*	*	*	*	*	*	*	*	*	*	*	*	*	*	*	*	*	*	*	*	*	*	*	*v	*v	*	*	*	*	*	*	*	*	*	*	*	*
=43	=43	=43	=43	=43	=43	=43	=43	=43	=43	=43	=43	=43	=43	=43	=43	=43	=43	=43	=43	=43	=43	=43	=43	=43	=43	=43	=43	=43	=43	=43	=43	=43	=43	=43	=43	=43	=43	=43	=43	=43	=43	=43	=43	=43	=43
*	*	*	*	*	*	*	*	*	*	*	*	*	*	*	*	*	*	*	*	*	*	*	*	*	*	*	*	*	*	*	*	*	*	*	*^	*	*	*	*^	*	*	*	*	*	*
!	!LO:DY:b:t=p.	!	!	!	!	!	!	!	!	!	!	!	!	!	!	!	!	!	!	!	!	!	!	!	!	!	!	!	!	!	!	!	!	!	!	!	!	!	!	!	!	!	!	!	!	!	!
4An\	p	2An\	o-	.	.	2c\	.	.	.	2f/	.	.	.	2cc\	o-	.	.	.	8r	.	8r	.	8r	p	1r	.	1r	.	1r	.	1r	.	1r	.	(1c/	2An\	.	1r	.	(2cc/	2f\	.	8r	1r	p	1r	.
.	.	.	.	.	.	.	.	.	.	.	.	.	.	.	.	.	.	.	8c\L	.	8f/L	.	8cc\L	.	.	.	.	.	.	.	.	.	.	.	.	.	.	.	.	.	.	.	(8cc/L	.	.	.	.
4r	.	.	.	.	.	.	.	.	.	.	.	.	.	.	.	.	.	.	8c\	.	8f/	.	8cc\	.	.	.	.	.	.	.	.	.	.	.	.	.	.	.	.	.	.	.	8ff/	.	.	.	.
.	.	.	.	.	.	.	.	.	.	.	.	.	.	.	.	.	.	.	8c\J	.	8f/J	.	8cc\J	.	.	.	.	.	.	.	.	.	.	.	.	.	.	.	.	.	.	.	8ccc/J)	.	.	.	.
4G\	.	2G\	-kryj	.	.	2c\	.	.	.	2en/	.	.	.	2b-\	-kryj	.	.	.	8r	.	8r	.	8r	.	.	.	.	.	.	.	.	.	.	.	.	2G\	.	.	.	2b-/	2eX\	<	8r	.	.	.	.
!	!	!	!	!	!	!	!	!	!	!	!	!	!	!	!	!	!	!	!	!	!	!	!	!LO:HP:t=crescendo	!	!	!	!	!	!	!	!	!	!	!	!	!	!	!	!	!	!	!	!	!	!	!
.	.	.	.	.	.	.	.	.	.	.	.	.	.	.	.	.	.	.	8c\L	.	8en/L	.	8b-\L	<	.	.	.	.	.	.	.	.	.	.	.	.	.	.	.	.	.	.	(8cc/L	.	.	.	.
!	!LO:HP:b:t=crescendo	!	!	!	!	!	!	!	!	!	!	!	!	!	!	!	!	!	!	!	!	!	!	!	!	!	!	!	!	!	!	!	!	!	!	!	!	!	!	!	!	!	!	!	!	!	!
4r	<	.	.	.	.	.	.	.	.	.	.	.	.	.	.	.	.	.	8c\	.	8e/	.	8b-\	.	.	.	.	.	.	.	.	.	.	.	.	.	.	.	.	.	.	.	8een/	.	.	.	.
.	.	.	.	.	.	.	.	.	.	.	.	.	.	.	.	.	.	.	8c\J	.	8e/J	.	8b-\J	.	.	.	.	.	.	.	.	.	.	.	.	.	.	.	.	.	.	.	8bb-/J)	.	.	.	.
=44	=44	=44	=44	=44	=44	=44	=44	=44	=44	=44	=44	=44	=44	=44	=44	=44	=44	=44	=44	=44	=44	=44	=44	=44	=44	=44	=44	=44	=44	=44	=44	=44	=44	=44	=44	=44	=44	=44	=44	=44	=44	=44	=44	=44	=44	=44	=44
4F\	.	2F\	Two-	.	.	2c\	.	.	.	2f/	.	.	.	2a/	Two-	.	.	.	8r	.	8r	.	8r	.	1r	.	1r	.	1r	.	1r	.	1r	.	2c/	2F\	<	1r	.	2a/	2f\	.	8r	1r	.	1r	.
.	.	.	.	.	.	.	.	.	.	.	.	.	.	.	.	.	.	.	8c\L	.	8f/L	.	8a/L	.	.	.	.	.	.	.	.	.	.	.	.	.	.	.	.	.	.	.	(8cc/L	.	.	.	.
4r	.	.	.	.	.	.	.	.	.	.	.	.	.	.	.	.	.	.	8c\	.	8f/	.	8a/	.	.	.	.	.	.	.	.	.	.	.	.	.	.	.	.	.	.	.	8ff/	.	.	.	.
.	.	.	.	.	.	.	.	.	.	.	.	.	.	.	.	.	.	.	8c\J	.	8f/J	.	8a/J	.	.	.	.	.	.	.	.	.	.	.	.	.	.	.	.	.	.	.	8aa/J)	.	.	.	.
4En\	.	4En\	-iei	.	.	4A\	.	.	.	4c#X/	.	.	.	4g/	-iej	.	.	.	8r	.	8r	.	8r	.	.	.	.	.	.	.	.	.	.	.	2A/	2En\	.	.	.	2g/	2c#X/	.	8r	.	.	.	.
.	.	.	.	.	.	.	.	.	.	.	.	.	.	.	.	.	.	.	8A/L	.	8c#X/L	.	8g/L	.	.	.	.	.	.	.	.	.	.	.	.	.	.	.	.	.	.	.	(8a/L	.	.	.	.
4r	.	4E\	o-	.	.	4A\	.	.	.	4c#/	.	.	.	4g/	o-	.	.	.	8A/	.	8c#/	.	8g/	.	.	.	.	.	.	.	.	.	.	.	.	.	.	.	.	.	.	.	8cc#X/	.	.	.	.
.	.	.	.	.	.	.	.	.	.	.	.	.	.	.	.	.	.	.	8A/J	.	8c#/J	.	8g/J	.	.	.	.	.	.	.	.	.	.	.	.	.	.	.	.	.	.	.	8gg/J)	.	.	.	.
=45	=45	=45	=45	=45	=45	=45	=45	=45	=45	=45	=45	=45	=45	=45	=45	=45	=45	=45	=45	=45	=45	=45	=45	=45	=45	=45	=45	=45	=45	=45	=45	=45	=45	=45	=45	=45	=45	=45	=45	=45	=45	=45	=45	=45	=45	=45	=45
4D\	.	2D\	-pie-	.	.	2A\	.	.	.	2d/	.	.	.	2f/	-pie-	.	.	.	8r	.	8r	.	8r	.	2r	.	2r	.	2r	.	1r	.	2r	.	2A/	2D\	.	1r	.	2.f/)	2.d/	.	8r	2r	.	2r	.
.	.	.	.	.	.	.	.	.	.	.	.	.	.	.	.	.	.	.	8A/L	.	8d/L	.	8f/L	.	.	.	.	.	.	.	.	.	.	.	.	.	.	.	.	.	.	.	(8a/L	.	.	.	.
4r	.	.	.	.	.	.	.	.	.	.	.	.	.	.	.	.	.	.	8A/	.	8d/	.	8f/	.	.	.	.	.	.	.	.	.	.	.	.	.	.	.	.	.	.	.	8dd/	.	.	.	.
.	.	.	.	.	.	.	.	.	.	.	.	.	.	.	.	.	.	.	8A/J	.	8d/J	.	8f/J	.	.	.	.	.	.	.	.	.	.	.	.	.	.	.	.	.	.	.	8ff/J)	.	.	.	.
!	!LO:HP:b	!	!	!	!	!	!	!	!	!	!	!	!	!	!	!	!	!	!	!	!	!	!	!	!	!	!	!	!	!	!	!	!	!	!	!	!	!	!	!	!	!	!	!	!	!	!
8BB-/	<	4BB-/	-ki	.	.	4d\	.	.	.	4d/	.	.	.	4f/	-ki	.	.	.	8r	.	8r	.	8r	.	4r	.	4r	.	4r	.	.	.	4r	.	4B-/)	4BB-\	.	.	.	.	.	.	4rc	4r	.	4r	.
8r	.	.	.	.	.	.	.	.	.	.	.	.	.	.	.	.	.	.	8d\	.	8d/	.	8f/	.	.	.	.	.	.	.	.	.	.	.	.	.	.	.	.	.	.	.	.	.	.	.	.
8BBn/	.	4BBn/	pu-	.	.	4d\	.	.	.	4d/	.	.	.	4g/	pu-	.	.	.	8r	.	8r	.	8r	.	4Bn\	<	4f\ 4d\	.	4g\	<	.	.	4g/ 4d/	.	4Bn\	4BBn\	<	.	.	4dd/	4dd\	.	4gg/	4ff\	<[	4gg\	<[
8r	[[	.	.	.	.	.	.	.	.	.	.	.	.	.	.	.	.	.	8d\	.	8d/	<[	8g/	<	.	.	.	.	.	.	.	.	.	.	.	.	.	.	.	.	.	.	.	.	.	.	.
=46	=46	=46	=46	=46	=46	=46	=46	=46	=46	=46	=46	=46	=46	=46	=46	=46	=46	=46	=46	=46	=46	=46	=46	=46	=46	=46	=46	=46	=46	=46	=46	=46	=46	=46	=46	=46	=46	=46	=46	=46	=46	=46	=46	=46	=46	=46	=46
*	*	*	*	*	*	*	*	*	*	*	*	*	*	*	*	*	*	*	*	*	*	*	*	*	*	*	*	*	*	*	*	*	*^	*	*	*	*	*	*	*	*	*	*	*	*	*	*
!	!LO:DY:b	!	!	!	!	!	!	!	!	!	!	!	!	!	!	!	!	!	!	!	!	!	!	!	!	!LO:DY:rj:a	!	!LO:DY:rj:a	!	!	!	!	!	!	!	!	!	!	!	!	!LO:N:vis=2	!LO:N:vis=2	!	!	!	!LO:DY:rj:a	!	!
4C/	f	1C/	-kle-	.	.	(2.c\	.	.	.	(2.f/	.	.	.	(2a/	-kle-	.	.	.	8r	.	8r	f	8r	[ f	(2c\	[ f	(2.f\	f	(2a\	[	1r	.	(2a/	2.f\	.	1c/	1C\	[ f	1r	.	[>2.cc/	[>2.b-\	.	(2aa/	2.ff\	f	(2aa\	.
.	.	.	.	.	.	.	.	.	.	.	.	.	.	.	.	.	.	.	8c\L	.	8f/L	.	8a/L	.	.	.	.	.	.	.	.	.	.	.	.	.	.	.	.	.	.	.	.	.	.	.	.	.
4r	.	.	.	.	.	.	.	.	.	.	.	.	.	.	.	.	.	.	8c\	.	8f/	.	8a/	.	.	.	.	.	.	.	.	.	.	.	.	.	.	.	.	.	.	.	.	.	.	.	.	.
.	.	.	.	.	.	.	.	.	.	.	.	.	.	.	.	.	.	.	8c\J	.	8f/J	.	8a/J	.	.	.	.	.	.	.	.	.	.	.	.	.	.	.	.	.	.	.	.	.	.	.	.	.
8C/	.	.	.	.	.	.	.	.	.	.	.	.	.	4g/	.	.	.	.	8r	.	8r	.	8r	.	2C/)	.	.	.	2g\)	.	.	.	4g/	.	.	.	.	.	.	.	.	.	.	4gg/	.	.	4gg\	.
8r	.	.	.	.	.	.	.	.	.	.	.	.	.	.	.	.	.	.	8c\	.	8f/	.	8g/	.	.	.	.	.	.	.	.	.	.	.	.	.	.	.	.	.	.	.	.	.	.	.	.	.
8C/	.	.	.	.	.	4B-\)	.	.	.	4en/)	.	.	.	4cc\)	.	.	.	.	8r	.	8r	.	8r	.	.	.	4en\)	.	.	.	.	.	4cc/)	4eX\	.	.	.	.	.	.	4cc/]	4b-\]	.	4ccc/)	4een\	.	4ccc\)	.
8r	.	.	.	.	.	.	.	.	.	.	.	.	.	.	.	.	.	.	8B-/	.	8en/	.	8cc\	.	.	.	.	.	.	.	.	.	.	.	.	.	.	.	.	.	.	.	.	.	.	.	.	.
!!LO:PB:g=original
=47	=47	=47	=47	=47	=47	=47	=47	=47	=47	=47	=47	=47	=47	=47	=47	=47	=47	=47	=47	=47	=47	=47	=47	=47	=47	=47	=47	=47	=47	=47	=47	=47	=47	=47	=47	=47	=47	=47	=47	=47	=47	=47	=47	=47	=47	=47	=47	=47
!	!	!	!	!	!	!	!	!	!	!	!	!	!	!	!	!	!	!	!	!	!	!	!	!	!	!	!LO:TX:t=P:problem:skreślona nuta	!	!	!	!	!	!	!	!	!	!	!	!	!	!	!	!	!	!	!	!	!
(4F\	.	4F\	-rzem	.	.	4A/	.	.	.	4f/	.	.	.	4f/	-rzem	.	.	.	4A/	.	4f/	.	4f/	.	(4F\	.	4f\ 4d\	.	4a\	.	2r	.	4a/	4f\	.	4A/	4F\	.	1r	.	4cc/	4a\	.	4ff/	4ff\	.	4ff\	.
4E-X\	.	4r	.	.	.	4r	.	.	.	4r	.	.	.	4r	.	.	.	.	4r	.	4r	.	4r	.	4E-X\	.	4r	.	4r	.	.	.	4r	4r	.	4E-/	4E-X\	.	.	.	4r	4ryy	.	4r	4ryy	.	4r	.
4D\	.	4r	.	.	.	4r	.	.	.	4r	.	.	.	4r	.	.	.	.	4r	.	4r	.	4r	.	4D\)	.	4r	.	4r	.	4r	.	4r	4r	.	4D/	4D\	.	.	.	4r	4ryy	.	4r	4ryy	.	4r	.
4C\)	.	4C/	I	.	.	4e-\	.	.	.	4f/	.	.	.	4a/	I	.	.	.	4e-\	.	4f/	.	4a/	.	4C\	.	4A\	.	4e-\	.	4F\	.	4f/	4f\	.	4C/	4C\	.	.	.	4a/	4e-\	.	4ee-/	4ee-\	.	4aa\	.
*	*	*	*	*	*	*	*	*	*	*	*	*	*	*	*	*	*	*	*	*	*	*	*	*	*	*	*	*	*	*	*	*	*v	*v	*	*	*	*	*	*	*v	*v	*	*v	*v	*	*	*
*	*	*	*	*	*	*	*	*	*	*	*	*	*	*	*	*	*	*	*	*	*	*	*	*	*	*	*	*	*	*	*	*	*	*	*v	*v	*	*	*	*	*	*	*	*	*
=48:|!	=48:|!	=48:|!	=48:|!	=48:|!	=48:|!	=48:|!	=48:|!	=48:|!	=48:|!	=48:|!	=48:|!	=48:|!	=48:|!	=48:|!	=48:|!	=48:|!	=48:|!	=48:|!	=48:|!	=48:|!	=48:|!	=48:|!	=48:|!	=48:|!	=48:|!	=48:|!	=48:|!	=48:|!	=48:|!	=48:|!	=48:|!	=48:|!	=48:|!	=48:|!	=48:|!	=48:|!	=48:|!	=48:|!	=48:|!	=48:|!	=48:|!	=48:|!	=48:|!	=48:|!
*tremolo	*	*	*	*	*	*	*	*	*	*	*	*	*	*	*	*	*	*	*tremolo	*	*tremolo	*	*tremolo	*	*	*	*	*	*	*	*	*	*	*	*	*	*	*	*	*	*	*	*	*
8BB-/L	.	4BB-/	Ty	.	.	4d\	.	.	.	4f/	.	.	.	4b-/	.	.	.	.	8f\ 8B-\L	.	8d/L	.	8b-/L	.	1ryy	.	1ryy	.	1ryy	.	1ryy	.	1ryy	.	1ryy	.	1ryy	.	1ryy	.	1ryy	.	1ryy	.
8BB-/	.	.	.	.	.	.	.	.	.	.	.	.	.	.	.	.	.	.	8f\ 8B-\	.	8d/	.	8b-/J	.	.	.	.	.	.	.	.	.	.	.	.	.	.	.	.	.	.	.	.	.
8BB-/	.	4BB-/	któ-	.	.	4B-\	.	.	.	4d/	.	.	.	4f/	.	.	.	.	8f\ 8B-\	.	8d/	.	8f/L	.	.	.	.	.	.	.	.	.	.	.	.	.	.	.	.	.	.	.	.	.
8BB-/J	.	.	.	.	.	.	.	.	.	.	.	.	.	.	.	.	.	.	8f\ 8B-\J	.	8d/J	.	8f/J	.	.	.	.	.	.	.	.	.	.	.	.	.	.	.	.	.	.	.	.	.
8BB-/L	.	4BB-/	-ry	.	.	4B-\	.	.	.	4e-/	.	.	.	4g/	.	.	.	.	8g\ 8B-\L	.	8e-/L	.	8g/L	.	.	.	.	.	.	.	.	.	.	.	.	.	.	.	.	.	.	.	.	.
8BB-/	.	.	.	.	.	.	.	.	.	.	.	.	.	.	.	.	.	.	8g\ 8B-\J	.	8e-/	.	8g/J	.	.	.	.	.	.	.	.	.	.	.	.	.	.	.	.	.	.	.	.	.
8BB-/	.	4BB-/	rę-	.	.	4c\	.	.	.	4e-/	.	.	.	4a/	.	.	.	.	8f\ 8c\L	.	8e-/	.	8a/L	.	.	.	.	.	.	.	.	.	.	.	.	.	.	.	.	.	.	.	.	.
8BB-/J	.	.	.	.	.	.	.	.	.	.	.	.	.	.	.	.	.	.	8f\ 8c\J	.	8e-/J	.	8a/J	.	.	.	.	.	.	.	.	.	.	.	.	.	.	.	.	.	.	.	.	.
*Xtremolo	*	*	*	*	*	*	*	*	*	*	*	*	*	*	*	*	*	*	*	*	*	*	*	*	*	*	*	*	*	*	*	*	*	*	*	*	*	*	*	*	*	*	*	*
=49	=49	=49	=49	=49	=49	=49	=49	=49	=49	=49	=49	=49	=49	=49	=49	=49	=49	=49	=49	=49	=49	=49	=49	=49	=49	=49	=49	=49	=49	=49	=49	=49	=49	=49	=49	=49	=49	=49	=49	=49	=49	=49	=49	=49
*	*	*	*	*	*	*^	*	*	*	*	*	*	*	*	*	*	*	*	*	*	*	*	*	*	*	*	*	*	*	*	*	*	*	*	*	*	*	*	*	*	*	*	*	*
!	!	!	!	!	!	!	!	!	!	!	!	!	!	!	!	!	!	!	!	!	!	!	!	!	!	!	!	!	!	!	!	!	!	!	!	!	!	!	!	!	!	!	!	!LO:TX:a:t=P:problem:"re" niebieską kredką	!
8BB-/L	.	4.BB-/	-ka-	.	.	2d/	2A\	.	.	.	2d/	.	.	.	2b-\	.	.	.	.	8f\ 8B-\L	.	8d/L	.	8b-\L	.	1ryy	.	1ryy	.	1ryy	.	1ryy	.	1ryy	.	1ryy	.	1ryy	.	1ryy	.	1ryy	.	1ryy	.
8D/	.	.	.	.	.	.	.	.	.	.	.	.	.	.	.	.	.	.	.	8f\ 8B-\	.	8d/	.	8b-\	.	.	.	.	.	.	.	.	.	.	.	.	.	.	.	.	.	.	.	.	.
8F/	.	.	.	.	.	.	.	.	.	.	.	.	.	.	.	.	.	.	.	8f\ 8B-\	.	8d/	.	8b-\	.	.	.	.	.	.	.	.	.	.	.	.	.	.	.	.	.	.	.	.	.
8BB-/J	.	8B-\	.	.	.	.	.	.	.	.	.	.	.	.	.	.	.	.	.	8f\ 8B-\J	.	8d/J	.	8b-\J	.	.	.	.	.	.	.	.	.	.	.	.	.	.	.	.	.	.	.	.	.
8AA/L	.	4.A\	-mi	.	.	2ryy	4.c\	.	.	.	4.f/	.	.	.	4.cc\	.	.	.	.	8f\ 8A\L	.	8f/L	.	8cc\L	.	.	.	.	.	.	.	.	.	.	.	.	.	.	.	.	.	.	.	.	.
8C/	.	.	.	.	.	.	.	.	.	.	.	.	.	.	.	.	.	.	.	8f\ 8A\	.	8f/	.	8cc\	.	.	.	.	.	.	.	.	.	.	.	.	.	.	.	.	.	.	.	.	.
8F/	.	.	.	.	.	.	.	.	.	.	.	.	.	.	.	.	.	.	.	8f\ 8A\	.	8f/	.	8cc\	.	.	.	.	.	.	.	.	.	.	.	.	.	.	.	.	.	.	.	.	.
8AA/J	.	8AA/	stra	.	.	.	8c\	.	.	.	8f/	.	.	.	8cc\	.	.	.	.	8f\ 8A\J	.	8f/J	.	8cc\J	.	.	.	.	.	.	.	.	.	.	.	.	.	.	.	.	.	.	.	.	.
*	*	*	*	*	*	*	*	*	*	*	*	*	*	*	*	*	*	*	*	*Xtremolo	*	*Xtremolo	*	*Xtremolo	*	*	*	*	*	*	*	*	*	*	*	*	*	*	*	*	*	*	*	*	*
*	*	*	*	*	*	*v	*v	*	*	*	*	*	*	*	*	*	*	*	*	*	*	*	*	*	*	*	*	*	*	*	*	*	*	*	*	*	*	*	*	*	*	*	*	*	*
==	==	==	==	==	==	==	==	==	==	==	==	==	==	==	==	==	==	==	==	==	==	==	==	==	==	==	==	==	==	==	==	==	==	==	==	==	==	==	==	==	==	==	==	==
*-	*-	*-	*-	*-	*-	*-	*-	*-	*-	*-	*-	*-	*-	*-	*-	*-	*-	*-	*-	*-	*-	*-	*-	*-	*-	*-	*-	*-	*-	*-	*-	*-	*-	*-	*-	*-	*-	*-	*-	*-	*-	*-	*-	*-
!!!system-decoration: s1,s2,s3,s4,s5,s6[(s7)][(s8,s9,s10)][(s11,s12,s13)][(s14,s15,s16,s17)]s18
!!!RDF**kern: > = above
!!!RDF**kern: < = below
!!!EED: Leszek Kubiak
!!!EST: 2021-04-26
!!!ENC: Andrzej Gręziak
!!!END: 2021-04-08
